;FLAVOR:RepRap
;TIME:1680
;Filament used: 1.67794m
;Layer height: 0.2
;MINX:134.4
;MINY:134.4
;MINZ:0.2
;MAXX:175.6
;MAXY:175.6
;MAXZ:20
;Generated with Cura_SteamEngine 4.8.0-beta
T0
M190 S65
M104 S200
M109 S200
M82 ;absolute extrusion mode
;G28  ;Home XY
;M561 ; Clear any bed transform that might be in place
;M116 H0 S5
;M116 T0 S5
;M140 S65 ;Set target temperature for the heated bed.
;M190 ;wait until bed has heated
;M104 T0 S200 ;Set target temperature for the nozzle 1.
;M109 T0 ;Wait until nozzle 1 have reached target temperature.
;G32
;G1 X0 Y0 ; Move Probe to middle of bed
;G30 ; Do a single probe
;G29 ; Probe the bed with the ABL ; **** uncomment this line if you have an always on ABL *****
;G92 E0 ; Reset Extruder
;G1 Z5.0  ; Move Z Axis up little to prevent scratching of Heat Bed
;G1 X-145 Y-145 Z0.3 F9000.0 ; Move to start position
;G1 X-145 Y100.0 Z0.3 F1500.0 E15 ; Draw the first line
;G1 X-142 Y100.0 Z0.3 F6000.0 ; Move to side a little
;G1 X-142 Y-145 Z0.3 F1500.0 E30 ; Draw the second line
;G92 E0 ; Reset Extruder
;G1 Z5.0 F9000 ; Move Z Axis up little to prevent scratching of Heat Bed
; End of custom start GCode
M83 ;relative extrusion mode
G10
;LAYER_COUNT:100
;LAYER:0
M107
G1 F900 Z0.6
G0 F4114.3 X137.589 Y137.439 Z0.6
;TYPE:SKIRT
G1 F900 Z0.2
G11
G1 F1200 X138.274 Y136.823 E0.03453
G1 X139.01 Y136.27 E0.03451
G1 X139.791 Y135.782 E0.03452
G1 X140.611 Y135.364 E0.0345
G1 X141.465 Y135.019 E0.03452
G1 X142.345 Y134.749 E0.0345
G1 X143.245 Y134.557 E0.03449
G1 X144.159 Y134.443 E0.03453
G1 X144.712 Y134.413 E0.02076
G1 X145.33 Y134.4 E0.02317
G1 X164.293 Y134.4 E0.71081
G1 X165.143 Y134.411 E0.03186
G1 X166.062 Y134.464 E0.03451
G1 X166.973 Y134.597 E0.03451
G1 X167.869 Y134.808 E0.0345
G1 X168.743 Y135.096 E0.03449
G1 X169.59 Y135.459 E0.03454
G1 X170.401 Y135.894 E0.0345
G1 X171.171 Y136.398 E0.0345
G1 X171.895 Y136.967 E0.03452
G1 X172.567 Y137.597 E0.03453
G1 X173.182 Y138.282 E0.03451
G1 X173.735 Y139.018 E0.03451
G1 X174.222 Y139.799 E0.0345
G1 X174.639 Y140.62 E0.03452
G1 X174.984 Y141.474 E0.03452
G1 X175.253 Y142.354 E0.03449
G1 X175.445 Y143.255 E0.03453
G1 X175.558 Y144.168 E0.03448
G1 X175.587 Y144.712 E0.02042
G1 X175.6 Y145.33 E0.02317
G1 X175.599 Y164.395 E0.71464
G1 X175.59 Y165.122 E0.02725
G1 X175.539 Y166.041 E0.0345
G1 X175.408 Y166.953 E0.03454
G1 X175.198 Y167.849 E0.0345
G1 X174.912 Y168.724 E0.03451
G1 X174.551 Y169.571 E0.03451
G1 X174.117 Y170.383 E0.03451
G1 X173.615 Y171.155 E0.03452
G1 X173.047 Y171.88 E0.03452
G1 X172.419 Y172.553 E0.0345
G1 X171.735 Y173.169 E0.0345
G1 X171 Y173.723 E0.0345
G1 X170.22 Y174.212 E0.03451
G1 X169.4 Y174.631 E0.03452
G1 X168.547 Y174.977 E0.0345
G1 X167.667 Y175.248 E0.03451
G1 X166.767 Y175.441 E0.0345
G1 X165.853 Y175.556 E0.03453
G1 X165.288 Y175.587 E0.02121
G1 X164.67 Y175.6 E0.02317
G1 X145.57 Y175.599 E0.71595
G1 X144.872 Y175.59 E0.02617
G1 X143.953 Y175.538 E0.0345
G1 X143.042 Y175.407 E0.0345
G1 X142.146 Y175.197 E0.0345
G1 X141.271 Y174.91 E0.03452
G1 X140.424 Y174.548 E0.03453
G1 X139.612 Y174.114 E0.03451
G1 X138.841 Y173.612 E0.03449
G1 X138.116 Y173.044 E0.03452
G1 X137.443 Y172.415 E0.03453
G1 X136.828 Y171.731 E0.03448
G1 X136.274 Y170.996 E0.0345
G1 X135.786 Y170.215 E0.03452
G1 X135.367 Y169.395 E0.03452
G1 X135.021 Y168.542 E0.0345
G1 X134.751 Y167.662 E0.0345
G1 X134.558 Y166.761 E0.03454
G1 X134.444 Y165.848 E0.03449
G1 X134.413 Y165.277 E0.02143
G1 X134.4 Y164.658 E0.02321
G1 X134.401 Y145.531 E0.71696
G1 X134.41 Y144.866 E0.02493
G1 X134.462 Y143.946 E0.03454
G1 X134.594 Y143.035 E0.0345
G1 X134.805 Y142.139 E0.0345
G1 X135.092 Y141.264 E0.03452
G1 X135.455 Y140.418 E0.03451
G1 X135.889 Y139.606 E0.03451
G1 X136.392 Y138.835 E0.03451
G1 X136.961 Y138.111 E0.03452
G1 X137.043 Y138.023 E0.00451
G0 F1080 X137.589 Y137.439
G0 F4114.3 X137.981 Y137.617
G1 F1200 X138.662 Y137.024 E0.03385
G1 X139.394 Y136.494 E0.03388
G1 X140.169 Y136.031 E0.03384
G1 X140.982 Y135.638 E0.03385
G1 X141.827 Y135.318 E0.03387
G1 X142.696 Y135.075 E0.03382
G1 X143.584 Y134.909 E0.03386
G1 X144.723 Y134.813 E0.04285
G1 X145.33 Y134.8 E0.02276
G1 X164.293 Y134.8 E0.71081
G1 X165.137 Y134.811 E0.03164
G1 X166.039 Y134.864 E0.03387
G1 X166.932 Y134.996 E0.03384
G1 X167.81 Y135.207 E0.03385
G1 X168.666 Y135.495 E0.03385
G1 X169.493 Y135.857 E0.03384
G1 X170.285 Y136.292 E0.03387
G1 X171.036 Y136.794 E0.03386
G1 X171.739 Y137.361 E0.03385
G1 X172.389 Y137.988 E0.03385
G1 X172.981 Y138.67 E0.03385
G1 X173.511 Y139.401 E0.03385
G1 X173.973 Y140.177 E0.03385
G1 X174.366 Y140.99 E0.03385
G1 X174.684 Y141.835 E0.03384
G1 X174.927 Y142.705 E0.03386
G1 X175.092 Y143.593 E0.03386
G1 X175.187 Y144.723 E0.04251
G1 X175.2 Y145.33 E0.02276
G1 X175.199 Y164.39 E0.71445
G1 X175.19 Y165.117 E0.02725
G1 X175.139 Y166.019 E0.03386
G1 X175.008 Y166.913 E0.03387
G1 X174.799 Y167.791 E0.03383
G1 X174.513 Y168.648 E0.03387
G1 X174.152 Y169.476 E0.03386
G1 X173.72 Y170.268 E0.03382
G1 X173.219 Y171.02 E0.03387
G1 X172.653 Y171.724 E0.03386
G1 X172.028 Y172.375 E0.03383
G1 X171.347 Y172.969 E0.03387
G1 X170.616 Y173.5 E0.03387
G1 X169.842 Y173.964 E0.03383
G1 X169.029 Y174.358 E0.03386
G1 X168.185 Y174.678 E0.03383
G1 X167.315 Y174.923 E0.03388
G1 X166.428 Y175.089 E0.03383
G1 X165.277 Y175.187 E0.0433
G1 X164.67 Y175.2 E0.02276
G1 X145.575 Y175.199 E0.71576
G1 X144.877 Y175.19 E0.02617
G1 X143.976 Y175.139 E0.03383
G1 X143.082 Y175.007 E0.03387
G1 X142.204 Y174.798 E0.03383
G1 X141.347 Y174.511 E0.03388
G1 X140.52 Y174.15 E0.03382
G1 X139.727 Y173.717 E0.03387
G1 X138.976 Y173.216 E0.03384
G1 X138.272 Y172.65 E0.03386
G1 X137.621 Y172.024 E0.03385
G1 X137.028 Y171.343 E0.03385
G1 X136.498 Y170.612 E0.03385
G1 X136.034 Y169.837 E0.03386
G1 X135.64 Y169.024 E0.03386
G1 X135.32 Y168.18 E0.03383
G1 X135.076 Y167.31 E0.03387
G1 X134.91 Y166.422 E0.03386
G1 X134.813 Y165.267 E0.04345
G1 X134.8 Y164.658 E0.02283
G1 X134.801 Y145.536 E0.71677
G1 X134.81 Y144.871 E0.02493
G1 X134.862 Y143.969 E0.03387
G1 X134.994 Y143.076 E0.03384
G1 X135.204 Y142.198 E0.03384
G1 X135.491 Y141.341 E0.03388
G1 X135.853 Y140.514 E0.03384
G1 X136.286 Y139.722 E0.03383
G1 X136.788 Y138.971 E0.03386
G1 X137.355 Y138.267 E0.03388
G1 X137.426 Y138.193 E0.00384
G0 F1080 X137.981 Y137.617
G10
G1 F900 Z0.6
;MESH:20mm_calibration_cube.stl
G0 F4114.3 X163.6 Y146.4 Z0.6
;TYPE:WALL-INNER
G1 F900 Z0.2
G11
G1 F1200 X163.6 Y163.6 E0.64473
G1 X146.4 Y163.6 E0.64473
G1 X146.4 Y146.4 E0.64473
G1 X162.8 Y146.4 E0.61474
G0 F1080 X163.6 Y146.4
G0 F4114.3 X164 Y146
G1 F1200 X164 Y164 E0.67472
G1 X146 Y164 E0.67472
G1 X146 Y146 E0.67472
G1 X163.2 Y146 E0.64473
G0 F1080 X164 Y146
G0 F4114.3 X164.4 Y145.6
G1 F1200 X164.4 Y164.4 E0.7047
G1 X145.6 Y164.4 E0.7047
G1 X145.6 Y145.6 E0.7047
G1 X163.6 Y145.6 E0.67472
G0 F1080 X164.4 Y145.6
G0 F4114.3 X164.8 Y145.2
;TYPE:WALL-OUTER
G1 F1200 X164.8 Y164.8 E0.73469
G1 X145.2 Y164.8 E0.73469
G1 X145.2 Y145.2 E0.73469
G1 X164 Y145.2 E0.7047
G0 F1080 X164.8 Y145.2
G0 F4114.3 X164.8 Y145.4
G0 X164.36 Y145.64
G0 X164.36 Y145.7
G0 X163.21 Y146.79
;TYPE:SKIN
G1 F1200 X163.21 Y163.21 E0.61549
G1 X146.79 Y163.21 E0.61549
G1 X146.79 Y146.79 E0.61549
G1 X162.41 Y146.79 E0.5855
G0 F1080 X163.21 Y146.79
G0 F4114.3 X162.829 Y147.556
G1 F1200 X162.443 Y147.17 E0.02046
G1 X162.829 Y147.17 E0.01447
G0 F4114.3 X162.443 Y147.17
G1 F1200 X161.877 Y147.17 E0.02122
G1 X162.829 Y148.121 E0.05044
G1 X162.829 Y148.687 E0.02122
G1 X161.312 Y147.17 E0.08042
G1 X160.746 Y147.17 E0.02122
G1 X162.829 Y149.253 E0.11042
G1 X162.829 Y149.818 E0.02118
G1 X160.18 Y147.17 E0.1404
G1 X159.615 Y147.17 E0.02118
G1 X162.829 Y150.384 E0.17038
G1 X162.829 Y150.95 E0.02122
G1 X159.049 Y147.17 E0.20038
G1 X158.483 Y147.17 E0.02122
G1 X162.829 Y151.516 E0.23038
G1 X162.829 Y152.081 E0.02118
G1 X157.918 Y147.17 E0.26034
G1 X157.352 Y147.17 E0.02122
G1 X162.829 Y152.647 E0.29034
G1 X162.829 Y153.213 E0.02122
G1 X156.786 Y147.17 E0.32034
G1 X156.221 Y147.17 E0.02118
G1 X162.829 Y153.778 E0.35029
G1 X162.829 Y154.344 E0.02122
G1 X155.655 Y147.17 E0.3803
G1 X155.089 Y147.17 E0.02122
G1 X162.829 Y154.91 E0.4103
G1 X162.829 Y155.475 E0.02118
G1 X154.524 Y147.17 E0.44025
G1 X153.958 Y147.17 E0.02122
G1 X162.829 Y156.041 E0.47026
G1 X162.829 Y156.607 E0.02122
G1 X153.392 Y147.17 E0.50026
G1 X152.826 Y147.17 E0.02122
G1 X162.829 Y157.172 E0.53024
G1 X162.829 Y157.738 E0.02122
G1 X152.261 Y147.17 E0.56022
G1 X151.695 Y147.17 E0.02122
G1 X162.829 Y158.304 E0.59022
G1 X162.829 Y158.869 E0.02118
G1 X151.129 Y147.17 E0.6202
G1 X150.564 Y147.17 E0.02118
G1 X162.829 Y159.435 E0.65018
G1 X162.829 Y160.001 E0.02122
G1 X149.998 Y147.17 E0.68018
G1 X149.432 Y147.17 E0.02122
G1 X162.829 Y160.566 E0.71016
G1 X162.829 Y161.132 E0.02122
G1 X148.867 Y147.17 E0.74013
G1 X148.301 Y147.17 E0.02122
G1 X162.829 Y161.698 E0.77014
G1 X162.829 Y162.264 E0.02122
G1 X147.735 Y147.17 E0.80014
G1 X147.169 Y147.169 E0.02122
G1 X162.829 Y162.829 E0.83015
G1 X162.264 Y162.829 E0.02118
G1 X147.169 Y147.735 E0.80017
G1 X147.169 Y148.3 E0.02118
G1 X161.698 Y162.829 E0.77019
G1 X161.132 Y162.829 E0.02122
G1 X147.169 Y148.866 E0.74019
G1 X147.169 Y149.432 E0.02122
G1 X160.566 Y162.829 E0.71018
G1 X160.001 Y162.829 E0.02118
G1 X147.169 Y149.997 E0.68023
G1 X147.169 Y150.563 E0.02122
G1 X159.435 Y162.829 E0.65023
G1 X158.869 Y162.829 E0.02122
G1 X147.169 Y151.129 E0.62022
G1 X147.169 Y151.694 E0.02118
G1 X158.304 Y162.829 E0.59027
G1 X157.738 Y162.829 E0.02122
G1 X147.169 Y152.26 E0.56027
G1 X147.169 Y152.826 E0.02122
G1 X157.172 Y162.829 E0.53027
G1 X156.607 Y162.829 E0.02118
G1 X147.169 Y153.391 E0.50031
G1 X147.169 Y153.957 E0.02122
G1 X156.041 Y162.829 E0.47031
G1 X155.475 Y162.829 E0.02122
G1 X147.169 Y154.523 E0.44031
G1 X147.169 Y155.089 E0.02122
G1 X154.91 Y162.829 E0.41033
G1 X154.344 Y162.829 E0.02122
G1 X147.169 Y155.654 E0.38035
G1 X147.169 Y156.22 E0.02122
G1 X153.778 Y162.829 E0.35035
G1 X153.213 Y162.829 E0.02118
G1 X147.169 Y156.786 E0.32037
G1 X147.169 Y157.351 E0.02118
G1 X152.647 Y162.829 E0.29039
G1 X152.081 Y162.829 E0.02122
G1 X147.169 Y157.917 E0.26039
G1 X147.169 Y158.483 E0.02122
G1 X151.516 Y162.829 E0.23041
G1 X150.95 Y162.829 E0.02122
G1 X147.169 Y159.048 E0.20043
G1 X147.169 Y159.614 E0.02122
G1 X150.384 Y162.829 E0.17043
G1 X149.818 Y162.829 E0.02122
G1 X147.169 Y160.18 E0.14043
G1 X147.169 Y160.745 E0.02118
G1 X149.253 Y162.829 E0.11047
G1 X148.687 Y162.829 E0.02122
G1 X147.169 Y161.311 E0.08047
G1 X147.169 Y161.877 E0.02122
G1 X148.121 Y162.829 E0.05047
G1 X147.556 Y162.829 E0.02118
G1 X147.169 Y162.442 E0.02052
G0 F4114.3 X147.17 Y162.829
G1 F1200 X147.556 Y162.829 E0.01447
G10
;MESH:NONMESH
G0 F900 X147.556 Y162.829 Z0.4
G0 F4114.3 X163.6 Y146.4
;TIME_ELAPSED:70.854726
;LAYER:1
M106 S255
;TYPE:WALL-INNER
;MESH:20mm_calibration_cube.stl
G11
G1 F2100 X163.6 Y163.6 E0.56063
G1 X146.4 Y163.6 E0.56063
G1 X146.4 Y146.4 E0.56063
G1 X162.8 Y146.4 E0.53456
G0 F1890 X163.6 Y146.4
G0 F7200 X164 Y146
G1 F2100 X164 Y164 E0.58671
G1 X146 Y164 E0.58671
G1 X146 Y146 E0.58671
G1 X163.2 Y146 E0.56063
G0 F1890 X164 Y146
G0 F7200 X164.4 Y145.6
G1 F2100 X164.4 Y164.4 E0.61278
G1 X145.6 Y164.4 E0.61278
G1 X145.6 Y145.6 E0.61278
G1 X163.6 Y145.6 E0.58671
G0 F1890 X164.4 Y145.6
G0 F7200 X164.8 Y145.2
;TYPE:WALL-OUTER
G1 F1800 X164.8 Y164.8 E0.63886
G1 X145.2 Y164.8 E0.63886
G1 X145.2 Y145.2 E0.63886
G1 X164 Y145.2 E0.61278
G0 F1620 X164.8 Y145.2
G0 F7200 X164.8 Y145.4
G0 X164.36 Y145.64
G0 X164.36 Y145.7
G0 X163.21 Y146.79
;TYPE:SKIN
G1 F1500 X163.21 Y163.21 E0.53521
G1 X146.79 Y163.21 E0.53521
G1 X146.79 Y146.79 E0.53521
G1 X162.41 Y146.79 E0.50913
G0 F1350 X163.21 Y146.79
G0 F7200 X147.169 Y147.169
G1 F1500 X147.17 Y147.551 E0.01245
G1 X147.552 Y147.169 E0.01761
G0 F7200 X147.17 Y147.551
G1 F1500 X147.17 Y148.117 E0.01845
G1 X148.118 Y147.169 E0.0437
G1 X148.684 Y147.169 E0.01845
G1 X147.17 Y148.683 E0.06979
G1 X147.17 Y149.249 E0.01845
G1 X149.249 Y147.169 E0.09586
G1 X149.815 Y147.169 E0.01845
G1 X147.17 Y149.814 E0.12192
G1 X147.17 Y150.38 E0.01845
G1 X150.381 Y147.169 E0.14801
G1 X150.946 Y147.169 E0.01842
G1 X147.17 Y150.946 E0.17408
G1 X147.17 Y151.511 E0.01842
G1 X151.512 Y147.169 E0.20015
G1 X152.078 Y147.169 E0.01845
G1 X147.17 Y152.077 E0.22624
G1 X147.17 Y152.643 E0.01845
G1 X152.643 Y147.169 E0.25231
G1 X153.209 Y147.169 E0.01845
G1 X147.17 Y153.208 E0.27837
G1 X147.17 Y153.774 E0.01845
G1 X153.775 Y147.169 E0.30447
G1 X154.34 Y147.169 E0.01842
G1 X147.17 Y154.34 E0.33053
G1 X147.17 Y154.905 E0.01842
G1 X154.906 Y147.169 E0.3566
G1 X155.472 Y147.169 E0.01845
G1 X147.17 Y155.471 E0.38269
G1 X147.17 Y156.037 E0.01845
G1 X156.037 Y147.169 E0.40876
G1 X156.603 Y147.169 E0.01845
G1 X147.17 Y156.602 E0.43483
G1 X147.17 Y157.168 E0.01845
G1 X157.169 Y147.169 E0.46092
G1 X157.735 Y147.169 E0.01845
G1 X147.17 Y157.734 E0.48701
G1 X147.17 Y158.299 E0.01842
G1 X158.3 Y147.169 E0.51305
G1 X158.866 Y147.169 E0.01845
G1 X147.17 Y158.865 E0.53914
G1 X147.17 Y159.431 E0.01845
G1 X159.432 Y147.169 E0.56523
G1 X159.997 Y147.169 E0.01842
G1 X147.17 Y159.997 E0.5913
G1 X147.17 Y160.562 E0.01842
G1 X160.563 Y147.169 E0.61737
G1 X161.129 Y147.169 E0.01845
G1 X147.17 Y161.128 E0.64346
G1 X147.17 Y161.694 E0.01845
G1 X161.694 Y147.169 E0.66952
G1 X162.26 Y147.169 E0.01845
G1 X147.17 Y162.259 E0.69559
G1 X147.17 Y162.825 E0.01845
G1 X162.826 Y147.169 E0.72168
G0 F7200 X162.829 Y147.17
G1 F1500 X162.829 Y147.731 E0.01829
G1 X147.731 Y162.829 E0.69596
G1 X148.297 Y162.829 E0.01845
G1 X162.829 Y148.297 E0.66987
G1 X162.829 Y148.862 E0.01842
G1 X148.862 Y162.829 E0.64383
G1 X149.428 Y162.829 E0.01845
G1 X162.829 Y149.428 E0.61774
G1 X162.829 Y149.994 E0.01845
G1 X149.994 Y162.829 E0.59164
G1 X150.56 Y162.829 E0.01845
G1 X162.829 Y150.56 E0.56555
G1 X162.829 Y151.125 E0.01842
G1 X151.125 Y162.829 E0.53951
G1 X151.691 Y162.829 E0.01845
G1 X162.829 Y151.691 E0.51342
G1 X162.829 Y152.257 E0.01845
G1 X152.257 Y162.829 E0.48733
G1 X152.822 Y162.829 E0.01842
G1 X162.829 Y152.822 E0.46128
G1 X162.829 Y153.388 E0.01845
G1 X153.388 Y162.829 E0.43519
G1 X153.954 Y162.829 E0.01845
G1 X162.829 Y153.954 E0.4091
G1 X162.829 Y154.519 E0.01842
G1 X154.519 Y162.829 E0.38306
G1 X155.085 Y162.829 E0.01845
G1 X162.829 Y155.085 E0.35697
G1 X162.829 Y155.651 E0.01845
G1 X155.651 Y162.829 E0.33088
G1 X156.216 Y162.829 E0.01842
G1 X162.829 Y156.216 E0.30483
G1 X162.829 Y156.782 E0.01845
G1 X156.782 Y162.829 E0.27874
G1 X157.348 Y162.829 E0.01845
G1 X162.829 Y157.348 E0.25265
G1 X162.829 Y157.913 E0.01842
G1 X157.913 Y162.829 E0.22661
G1 X158.479 Y162.829 E0.01845
G1 X162.829 Y158.479 E0.20052
G1 X162.829 Y159.045 E0.01845
G1 X159.045 Y162.829 E0.17443
G1 X159.61 Y162.829 E0.01842
G1 X162.829 Y159.61 E0.14838
G1 X162.829 Y160.176 E0.01845
G1 X160.176 Y162.829 E0.12229
G1 X160.742 Y162.829 E0.01845
G1 X162.829 Y160.742 E0.0962
G1 X162.829 Y161.308 E0.01845
G1 X161.308 Y162.829 E0.07011
G1 X161.873 Y162.829 E0.01842
G1 X162.829 Y161.873 E0.04407
G1 X162.829 Y162.439 E0.01845
G1 X162.439 Y162.829 E0.01798
G0 F7200 X162.829 Y162.829
G1 F1500 X162.829 Y162.439 E0.01271
G10
;MESH:NONMESH
G0 F900 X162.829 Y162.439 Z0.6
G0 F7200 X163.6 Y146.4
;TIME_ELAPSED:108.855223
;LAYER:2
;TYPE:WALL-INNER
;MESH:20mm_calibration_cube.stl
G11
G1 F2100 X163.6 Y163.6 E0.56063
G1 X146.4 Y163.6 E0.56063
G1 X146.4 Y146.4 E0.56063
G1 X162.8 Y146.4 E0.53456
G0 F1890 X163.6 Y146.4
G0 F7200 X164 Y146
G1 F2100 X164 Y164 E0.58671
G1 X146 Y164 E0.58671
G1 X146 Y146 E0.58671
G1 X163.2 Y146 E0.56063
G0 F1890 X164 Y146
G0 F7200 X164.4 Y145.6
G1 F2100 X164.4 Y164.4 E0.61278
G1 X145.6 Y164.4 E0.61278
G1 X145.6 Y145.6 E0.61278
G1 X163.6 Y145.6 E0.58671
G0 F1890 X164.4 Y145.6
G0 F7200 X164.8 Y145.2
;TYPE:WALL-OUTER
G1 F1800 X164.8 Y164.8 E0.63886
G1 X145.2 Y164.8 E0.63886
G1 X145.2 Y145.2 E0.63886
G1 X164 Y145.2 E0.61278
G0 F1620 X164.8 Y145.2
G0 F7200 X164.8 Y145.4
G0 X164.36 Y145.64
G0 X164.36 Y145.7
G0 X163.21 Y146.79
;TYPE:SKIN
G1 F1500 X163.21 Y163.21 E0.53521
G1 X146.79 Y163.21 E0.53521
G1 X146.79 Y146.79 E0.53521
G1 X162.41 Y146.79 E0.50913
G0 F1350 X163.21 Y146.79
G0 F7200 X162.829 Y147.556
