;FLAVOR:RepRap
;TIME:12353
;Filament used: 12.4033m
;Layer height: 0.2
;MINX:101.468
;MINY:126.605
;MINZ:0.2
;MAXX:202.286
;MAXY:208.323
;MAXZ:49.6
;Generated with Cura_SteamEngine 4.8.0-beta
T0
M190 S65
M104 S200
M109 S200
M82 ;absolute extrusion mode
;G28  ;Home XY
;M561 ; Clear any bed transform that might be in place
;M116 H0 S5
;M116 T0 S5
;M140 S65 ;Set target temperature for the heated bed.
;M190 ;wait until bed has heated
;M104 T0 S200 ;Set target temperature for the nozzle 1.
;M109 T0 ;Wait until nozzle 1 have reached target temperature.
;G32
;G1 X0 Y0 ; Move Probe to middle of bed
;G30 ; Do a single probe
;G29 ; Probe the bed with the ABL ; **** uncomment this line if you have an always on ABL *****
;G92 E0 ; Reset Extruder
;G1 Z5.0  ; Move Z Axis up little to prevent scratching of Heat Bed
;G1 X-145 Y-145 Z0.3 F9000.0 ; Move to start position
;G1 X-145 Y100.0 Z0.3 F1500.0 E15 ; Draw the first line
;G1 X-142 Y100.0 Z0.3 F6000.0 ; Move to side a little
;G1 X-142 Y-145 Z0.3 F1500.0 E30 ; Draw the second line
;G92 E0 ; Reset Extruder
;G1 Z5.0 F9000 ; Move Z Axis up little to prevent scratching of Heat Bed
; End of custom start GCode
M83 ;relative extrusion mode
G10
;LAYER_COUNT:246
;LAYER:0
M107
G1 F900 Z0.6
G0 F4114.3 X106.769 Y129.354 Z0.6
;TYPE:SKIRT
G1 F900 Z0.2
G11
G1 F1200 X107.211 Y129.035 E0.02043
G1 X107.337 Y128.949 E0.00572
G1 X107.807 Y128.646 E0.02096
G1 X108.136 Y128.446 E0.01443
G1 X108.943 Y128.003 E0.03451
G1 X109.667 Y127.677 E0.02976
G1 X110.2 Y127.469 E0.02145
G1 X110.511 Y127.356 E0.0124
G1 X111.389 Y127.08 E0.0345
G1 X112.171 Y126.902 E0.03006
G1 X112.809 Y126.788 E0.02429
G1 X112.98 Y126.762 E0.00648
G1 X113.914 Y126.662 E0.03521
G1 X114.614 Y126.628 E0.02627
G1 X115.643 Y126.607 E0.03858
G1 X115.859 Y126.605 E0.0081
G1 X188.327 Y126.607 E2.7164
G1 X188.904 Y126.615 E0.02163
G1 X189.551 Y126.644 E0.02428
G1 X190.15 Y126.689 E0.02252
G1 X190.623 Y126.735 E0.01781
G1 X191.532 Y126.88 E0.0345
G1 X192.37 Y127.087 E0.03236
G1 X193.162 Y127.326 E0.03101
G1 X193.309 Y127.375 E0.00581
G1 X194.169 Y127.704 E0.03451
G1 X194.874 Y128.04 E0.02927
G1 X195.357 Y128.297 E0.02051
G1 X195.606 Y128.436 E0.01069
G1 X196.389 Y128.92 E0.0345
G1 X197.021 Y129.383 E0.02937
G1 X197.515 Y129.785 E0.02387
G1 X197.753 Y129.989 E0.01175
G1 X198.426 Y130.618 E0.03453
G1 X198.992 Y131.243 E0.03161
G1 X199.371 Y131.705 E0.0224
G1 X199.552 Y131.936 E0.011
G1 X200.088 Y132.685 E0.03452
G1 X200.434 Y133.255 E0.02499
G1 X200.758 Y133.849 E0.02536
G1 X200.919 Y134.166 E0.01333
G1 X201.3 Y135.004 E0.03451
G1 X201.56 Y135.724 E0.02869
G1 X201.727 Y136.264 E0.02119
G1 X201.819 Y136.588 E0.01262
G1 X202.032 Y137.483 E0.03449
G1 X202.164 Y138.371 E0.03365
G1 X202.221 Y138.96 E0.02218
G1 X202.237 Y139.167 E0.00778
G1 X202.267 Y139.776 E0.02286
G1 X202.284 Y140.643 E0.03251
G1 X202.286 Y140.85 E0.00776
G1 X202.286 Y158.448 E0.65965
G1 X202.273 Y159.352 E0.03389
G1 X202.265 Y159.647 E0.01106
G1 X202.243 Y160.168 E0.01955
G1 X202.226 Y160.465 E0.01115
G1 X202.099 Y162.27 E0.06783
G1 X202.06 Y162.697 E0.01607
G1 X201.863 Y164.469 E0.06683
G1 X201.821 Y164.803 E0.01262
G1 X201.68 Y165.786 E0.03722
G1 X201.563 Y166.478 E0.02631
G1 X201.223 Y168.25 E0.06763
G1 X201.131 Y168.681 E0.01652
G1 X200.759 Y170.262 E0.06088
G1 X200.657 Y170.66 E0.0154
G1 X200.244 Y172.153 E0.05807
G1 X200.124 Y172.557 E0.0158
G1 X199.632 Y174.095 E0.06053
G1 X199.493 Y174.5 E0.01605
G1 X198.948 Y175.993 E0.05958
G1 X198.793 Y176.392 E0.01605
G1 X198.181 Y177.879 E0.06028
G1 X198.011 Y178.271 E0.01602
G1 X197.364 Y179.679 E0.05808
G1 X197.178 Y180.062 E0.01596
G1 X196.366 Y181.657 E0.06709
G1 X196.219 Y181.937 E0.01185
G1 X195.756 Y182.783 E0.03615
G1 X195.443 Y183.323 E0.0234
G1 X194.434 Y184.971 E0.07243
G1 X194.204 Y185.33 E0.01598
G1 X193.293 Y186.69 E0.06136
G1 X193.047 Y187.041 E0.01607
G1 X192.133 Y188.293 E0.05811
G1 X191.88 Y188.626 E0.01568
G1 X190.869 Y189.902 E0.06102
G1 X190.599 Y190.229 E0.0159
G1 X189.582 Y191.412 E0.05848
G1 X189.3 Y191.728 E0.01588
G1 X188.182 Y192.928 E0.06148
G1 X187.877 Y193.242 E0.01641
G1 X186.779 Y194.327 E0.05786
G1 X186.482 Y194.609 E0.01535
G1 X185.311 Y195.68 E0.05948
G1 X184.983 Y195.968 E0.01636
G1 X183.593 Y197.138 E0.0681
G1 X183.339 Y197.344 E0.01226
G1 X182.452 Y198.043 E0.04233
G1 X182.007 Y198.373 E0.02077
G1 X180.377 Y199.535 E0.07504
G1 X180.106 Y199.722 E0.01234
G1 X179.301 Y200.259 E0.03627
G1 X178.67 Y200.659 E0.028
G1 X177.125 Y201.584 E0.0675
G1 X176.766 Y201.789 E0.0155
G1 X175.38 Y202.547 E0.05922
G1 X175.014 Y202.738 E0.01547
G1 X173.542 Y203.47 E0.06162
G1 X173.141 Y203.659 E0.01662
G1 X171.693 Y204.305 E0.05943
G1 X171.313 Y204.466 E0.01547
G1 X169.874 Y205.042 E0.0581
G1 X169.473 Y205.193 E0.01606
G1 X167.931 Y205.739 E0.06132
G1 X167.52 Y205.875 E0.01623
G1 X165.991 Y206.347 E0.05998
G1 X165.596 Y206.461 E0.01541
G1 X164.1 Y206.86 E0.05804
G1 X163.68 Y206.963 E0.01621
G1 X162.123 Y207.311 E0.0598
G1 X161.708 Y207.395 E0.01587
G1 X159.949 Y207.715 E0.06702
G1 X159.619 Y207.77 E0.01254
G1 X158.662 Y207.913 E0.03627
G1 X157.972 Y207.998 E0.02606
G1 X156.032 Y208.191 E0.07308
G1 X155.672 Y208.221 E0.01354
G1 X154.536 Y208.295 E0.04267
G1 X153.822 Y208.32 E0.02678
G1 X153.277 Y208.323 E0.02043
G1 X151.603 Y208.307 E0.06275
G1 X150.529 Y208.322 E0.04026
G1 X149.866 Y208.316 E0.02485
G1 X149.154 Y208.292 E0.0267
G1 X148.822 Y208.276 E0.01246
G1 X148.177 Y208.234 E0.02423
G1 X147.802 Y208.202 E0.01411
G1 X146.028 Y208.023 E0.06683
G1 X145.616 Y207.974 E0.01555
G1 X144.073 Y207.757 E0.05841
G1 X143.649 Y207.688 E0.0161
G1 X142.063 Y207.399 E0.06043
G1 X141.648 Y207.315 E0.01587
G1 X140.071 Y206.962 E0.06058
G1 X139.648 Y206.858 E0.01633
G1 X138.178 Y206.465 E0.05704
G1 X137.787 Y206.353 E0.01525
G1 X136.049 Y205.816 E0.06819
G1 X135.721 Y205.708 E0.01294
G1 X134.779 Y205.383 E0.03735
G1 X134.13 Y205.141 E0.02596
G1 X132.41 Y204.453 E0.06944
G1 X132.023 Y204.289 E0.01576
G1 X130.595 Y203.651 E0.05863
G1 X130.21 Y203.47 E0.01595
G1 X128.764 Y202.753 E0.0605
G1 X128.389 Y202.557 E0.01586
G1 X127.017 Y201.807 E0.05861
G1 X126.645 Y201.594 E0.01607
G1 X125.264 Y200.765 E0.06038
G1 X124.917 Y200.548 E0.01534
G1 X123.584 Y199.676 E0.05971
G1 X123.223 Y199.428 E0.01642
G1 X121.936 Y198.508 E0.0593
G1 X121.599 Y198.257 E0.01575
G1 X120.315 Y197.26 E0.06094
G1 X119.98 Y196.989 E0.01615
G1 X118.769 Y195.967 E0.0594
G1 X118.454 Y195.691 E0.0157
G1 X117.316 Y194.651 E0.05779
G1 X117.007 Y194.356 E0.01601
G1 X115.83 Y193.19 E0.0621
G1 X115.544 Y192.896 E0.01537
G1 X114.479 Y191.756 E0.05848
G1 X114.185 Y191.428 E0.01651
G1 X113.147 Y190.22 E0.0597
G1 X112.881 Y189.898 E0.01566
G1 X111.889 Y188.647 E0.05985
G1 X111.633 Y188.311 E0.01583
G1 X110.687 Y187.015 E0.06014
G1 X110.444 Y186.666 E0.01594
G1 X109.562 Y185.35 E0.05938
G1 X109.328 Y184.985 E0.01625
G1 X108.5 Y183.633 E0.05943
G1 X108.29 Y183.276 E0.01553
G1 X107.519 Y181.899 E0.05916
G1 X107.316 Y181.517 E0.01622
G1 X106.506 Y179.921 E0.06709
G1 X106.365 Y179.633 E0.01202
G1 X105.981 Y178.816 E0.03384
G1 X105.854 Y178.536 E0.01152
G1 X105.589 Y177.925 E0.02496
G1 X105.161 Y176.91 E0.04129
G1 X104.965 Y176.417 E0.01989
G1 X104.884 Y176.204 E0.00854
G1 X104.263 Y174.506 E0.06777
G1 X104.123 Y174.097 E0.0162
G1 X103.631 Y172.56 E0.06049
G1 X103.509 Y172.15 E0.01603
G1 X103.093 Y170.644 E0.05857
G1 X102.99 Y170.244 E0.01548
G1 X102.587 Y168.527 E0.06611
G1 X102.511 Y168.176 E0.01346
G1 X102.312 Y167.177 E0.03818
G1 X102.182 Y166.43 E0.02842
G1 X101.984 Y165.193 E0.04696
G1 X101.912 Y164.668 E0.01986
G1 X101.89 Y164.486 E0.00687
G1 X101.692 Y162.695 E0.06754
G1 X101.654 Y162.267 E0.01611
G1 X101.53 Y160.487 E0.06688
G1 X101.511 Y160.125 E0.01359
G1 X101.478 Y159.193 E0.03496
G1 X101.471 Y158.879 E0.01177
G1 X101.468 Y158.357 E0.01957
G1 X101.469 Y140.545 E0.66767
G1 X101.479 Y139.921 E0.02339
G1 X101.506 Y139.319 E0.02259
G1 X101.563 Y138.618 E0.02636
G1 X101.579 Y138.467 E0.00569
G1 X101.716 Y137.557 E0.03449
G1 X101.845 Y136.977 E0.02227
G1 X101.965 Y136.504 E0.01829
G1 X102.23 Y135.623 E0.03449
G1 X102.608 Y134.685 E0.03791
G1 X102.858 Y134.141 E0.02244
G1 X103.279 Y133.322 E0.03452
G1 X103.8 Y132.497 E0.03657
G1 X104.149 Y132.012 E0.0224
G1 X104.359 Y131.736 E0.013
G1 X104.948 Y131.029 E0.03449
G1 X105.387 Y130.573 E0.02373
G1 X105.8 Y130.18 E0.02137
G1 X106.061 Y129.943 E0.01321
G1 X106.154 Y129.866 E0.00453
G0 F1080 X106.769 Y129.354
G0 F4114.3 X107.025 Y129.662
G1 F1200 X107.437 Y129.365 E0.01904
G1 X107.563 Y129.279 E0.00572
G1 X108.015 Y128.988 E0.02015
G1 X108.344 Y128.788 E0.01443
G1 X109.135 Y128.354 E0.03382
G1 X109.817 Y128.048 E0.02802
G1 X110.337 Y127.845 E0.02092
G1 X110.648 Y127.732 E0.0124
G1 X111.509 Y127.462 E0.03382
G1 X112.245 Y127.295 E0.02829
G1 X112.869 Y127.184 E0.02376
G1 X113.04 Y127.158 E0.00648
G1 X113.939 Y127.062 E0.03389
G1 X114.622 Y127.028 E0.02563
G1 X115.651 Y127.007 E0.03858
G1 X115.859 Y127.005 E0.0078
G1 X188.321 Y127.007 E2.71618
G1 X188.898 Y127.015 E0.02163
G1 X189.521 Y127.043 E0.02338
G1 X190.12 Y127.088 E0.02252
G1 X190.577 Y127.132 E0.01721
G1 X191.469 Y127.275 E0.03386
G1 X192.258 Y127.471 E0.03047
G1 X193.036 Y127.705 E0.03045
G1 X193.183 Y127.754 E0.00581
G1 X194.026 Y128.078 E0.03385
G1 X194.688 Y128.395 E0.02751
G1 X195.162 Y128.647 E0.02012
G1 X195.411 Y128.786 E0.01069
G1 X196.179 Y129.26 E0.03383
G1 X196.772 Y129.697 E0.02761
G1 X197.255 Y130.089 E0.02332
G1 X197.493 Y130.293 E0.01175
G1 X198.152 Y130.91 E0.03384
G1 X198.685 Y131.5 E0.0298
G1 X199.056 Y131.952 E0.02192
G1 X199.237 Y132.183 E0.011
G1 X199.762 Y132.918 E0.03386
G1 X200.086 Y133.452 E0.02341
G1 X200.401 Y134.03 E0.02467
G1 X200.562 Y134.347 E0.01333
G1 X200.935 Y135.17 E0.03387
G1 X201.179 Y135.846 E0.02694
G1 X201.342 Y136.373 E0.02068
G1 X201.434 Y136.697 E0.01262
G1 X201.642 Y137.576 E0.03386
G1 X201.766 Y138.413 E0.03172
G1 X201.823 Y138.991 E0.02177
G1 X201.839 Y139.198 E0.00778
G1 X201.867 Y139.784 E0.02199
G1 X201.884 Y140.651 E0.03251
G1 X201.886 Y140.85 E0.00746
G1 X201.886 Y158.443 E0.65946
G1 X201.873 Y159.347 E0.03389
G1 X201.865 Y159.63 E0.01061
G1 X201.843 Y160.151 E0.01955
G1 X201.827 Y160.437 E0.01074
G1 X201.7 Y162.242 E0.06783
G1 X201.663 Y162.653 E0.01547
G1 X201.466 Y164.425 E0.06683
G1 X201.425 Y164.746 E0.01213
G1 X201.284 Y165.729 E0.03722
G1 X201.17 Y166.403 E0.02562
G1 X200.83 Y168.175 E0.06763
G1 X200.742 Y168.589 E0.01587
G1 X200.37 Y170.17 E0.06088
G1 X200.272 Y170.553 E0.01482
G1 X199.859 Y172.046 E0.05807
G1 X199.743 Y172.435 E0.01522
G1 X199.251 Y173.973 E0.06053
G1 X199.118 Y174.363 E0.01545
G1 X198.573 Y175.856 E0.05958
G1 X198.423 Y176.24 E0.01545
G1 X197.811 Y177.727 E0.06028
G1 X197.647 Y178.104 E0.01541
G1 X197 Y179.512 E0.05808
G1 X196.822 Y179.881 E0.01536
G1 X196.01 Y181.476 E0.06709
G1 X195.868 Y181.745 E0.0114
G1 X195.405 Y182.591 E0.03615
G1 X195.099 Y183.119 E0.02288
G1 X194.093 Y184.762 E0.07221
G1 X193.871 Y185.108 E0.01541
G1 X192.96 Y186.468 E0.06136
G1 X192.724 Y186.805 E0.01542
G1 X191.81 Y188.057 E0.05811
G1 X191.567 Y188.377 E0.01506
G1 X190.556 Y189.653 E0.06102
G1 X190.296 Y189.968 E0.01531
G1 X189.279 Y191.151 E0.05848
G1 X189.007 Y191.455 E0.01529
G1 X187.889 Y192.655 E0.06148
G1 X187.595 Y192.957 E0.0158
G1 X186.497 Y194.042 E0.05786
G1 X186.212 Y194.314 E0.01477
G1 X185.041 Y195.385 E0.05948
G1 X184.725 Y195.662 E0.01575
G1 X183.335 Y196.832 E0.0681
G1 X183.091 Y197.031 E0.0118
G1 X182.39 Y197.585 E0.03349
G1 X181.775 Y198.048 E0.02886
G1 X180.145 Y199.21 E0.07504
G1 X179.884 Y199.389 E0.01186
G1 X179.079 Y199.926 E0.03627
G1 X178.465 Y200.315 E0.02725
G1 X176.92 Y201.24 E0.0675
G1 X176.574 Y201.438 E0.01494
G1 X175.188 Y202.196 E0.05922
G1 X174.836 Y202.38 E0.01489
G1 X173.364 Y203.112 E0.06162
G1 X172.978 Y203.294 E0.016
G1 X171.53 Y203.94 E0.05943
G1 X171.164 Y204.095 E0.0149
G1 X169.725 Y204.671 E0.0581
G1 X169.34 Y204.816 E0.01542
G1 X167.798 Y205.362 E0.06132
G1 X167.402 Y205.493 E0.01563
G1 X165.873 Y205.965 E0.05998
G1 X165.493 Y206.074 E0.01482
G1 X163.997 Y206.473 E0.05804
G1 X163.593 Y206.572 E0.01559
G1 X162.036 Y206.92 E0.0598
G1 X161.637 Y207.001 E0.01526
G1 X159.878 Y207.321 E0.06702
G1 X159.559 Y207.374 E0.01212
G1 X158.602 Y207.517 E0.03627
G1 X157.933 Y207.6 E0.02527
G1 X155.993 Y207.793 E0.07308
G1 X155.646 Y207.821 E0.01305
G1 X154.51 Y207.895 E0.04267
G1 X153.82 Y207.92 E0.02588
G1 X153.275 Y207.923 E0.02043
G1 X151.601 Y207.907 E0.06275
G1 X150.529 Y207.922 E0.04019
G1 X149.879 Y207.916 E0.02437
G1 X149.167 Y207.892 E0.0267
G1 X148.848 Y207.876 E0.01197
G1 X148.203 Y207.834 E0.02423
G1 X147.842 Y207.804 E0.01358
G1 X146.068 Y207.625 E0.06683
G1 X145.672 Y207.578 E0.01495
G1 X144.129 Y207.361 E0.05841
G1 X143.72 Y207.295 E0.01553
G1 X142.134 Y207.006 E0.06043
G1 X141.735 Y206.925 E0.01526
G1 X140.158 Y206.572 E0.06058
G1 X139.752 Y206.472 E0.01567
G1 X138.282 Y206.079 E0.05704
G1 X137.905 Y205.97 E0.01471
G1 X136.167 Y205.433 E0.06819
G1 X135.851 Y205.33 E0.01246
G1 X134.909 Y205.005 E0.03735
G1 X134.279 Y204.769 E0.02522
G1 X132.559 Y204.081 E0.06944
G1 X132.186 Y203.924 E0.01517
G1 X130.758 Y203.286 E0.05863
G1 X130.388 Y203.111 E0.01534
G1 X128.942 Y202.394 E0.0605
G1 X128.58 Y202.206 E0.01529
G1 X127.208 Y201.456 E0.05861
G1 X126.851 Y201.251 E0.01543
G1 X125.47 Y200.422 E0.06038
G1 X125.136 Y200.213 E0.01477
G1 X123.803 Y199.341 E0.05971
G1 X123.455 Y199.103 E0.0158
G1 X122.168 Y198.183 E0.0593
G1 X121.844 Y197.941 E0.01516
G1 X120.56 Y196.944 E0.06094
G1 X120.237 Y196.683 E0.01557
G1 X119.026 Y195.661 E0.0594
G1 X118.724 Y195.395 E0.01509
G1 X117.586 Y194.355 E0.05779
G1 X117.288 Y194.072 E0.0154
G1 X116.111 Y192.906 E0.0621
G1 X115.836 Y192.623 E0.01479
G1 X114.771 Y191.483 E0.05848
G1 X114.489 Y191.168 E0.01585
G1 X113.451 Y189.96 E0.0597
G1 X113.195 Y189.65 E0.01507
G1 X112.203 Y188.399 E0.05985
G1 X111.956 Y188.075 E0.01527
G1 X111.01 Y186.779 E0.06014
G1 X110.776 Y186.444 E0.01532
G1 X109.894 Y185.128 E0.05938
G1 X109.669 Y184.776 E0.01566
G1 X108.841 Y183.424 E0.05943
G1 X108.639 Y183.08 E0.01495
G1 X107.868 Y181.703 E0.05916
G1 X107.672 Y181.336 E0.0156
G1 X106.862 Y179.74 E0.06709
G1 X106.727 Y179.463 E0.01155
G1 X106.343 Y178.646 E0.03384
G1 X106.221 Y178.377 E0.01107
G1 X105.957 Y177.769 E0.02485
G1 X105.529 Y176.754 E0.04129
G1 X105.337 Y176.272 E0.01945
G1 X104.639 Y174.368 E0.07601
G1 X104.504 Y173.975 E0.01558
G1 X104.012 Y172.438 E0.06049
G1 X103.894 Y172.044 E0.01542
G1 X103.478 Y170.538 E0.05857
G1 X103.38 Y170.153 E0.01489
G1 X102.977 Y168.436 E0.06611
G1 X102.904 Y168.098 E0.01296
G1 X102.705 Y167.099 E0.03818
G1 X102.576 Y166.364 E0.02797
G1 X102.379 Y165.13 E0.04684
G1 X102.309 Y164.617 E0.01941
G1 X102.288 Y164.442 E0.00661
G1 X102.09 Y162.651 E0.06754
G1 X102.053 Y162.239 E0.01551
G1 X101.929 Y160.459 E0.06688
G1 X101.91 Y160.111 E0.01306
G1 X101.877 Y159.179 E0.03496
G1 X101.871 Y158.877 E0.01132
G1 X101.868 Y158.355 E0.01957
G1 X101.869 Y140.552 E0.66733
G1 X101.879 Y139.928 E0.02339
G1 X101.905 Y139.348 E0.02176
G1 X101.961 Y138.66 E0.02587
G1 X101.977 Y138.509 E0.00569
G1 X102.112 Y137.616 E0.03385
G1 X102.233 Y137.076 E0.02074
G1 X102.353 Y136.603 E0.01829
G1 X102.614 Y135.738 E0.03387
G1 X102.972 Y134.852 E0.03582
G1 X103.222 Y134.308 E0.02244
G1 X103.635 Y133.505 E0.03385
G1 X104.128 Y132.726 E0.03456
G1 X104.468 Y132.255 E0.02177
G1 X104.678 Y131.979 E0.013
G1 X105.256 Y131.285 E0.03385
G1 X105.667 Y130.859 E0.02219
G1 X106.069 Y130.476 E0.02081
G1 X106.33 Y130.239 E0.01321
G1 X106.41 Y130.173 E0.00389
G0 F1080 X107.025 Y129.662
G10
G1 F900 Z0.6
;MESH:Pixel2XL_Dock_v24_Text.stl
G0 F4114.3 X148.162 Y138.605 Z0.6
;TYPE:WALL-INNER
G1 F900 Z0.2
G11
G1 F1200 X147.466 Y138.816 E0.02726
G1 X147.133 Y138.992 E0.01412
G1 X146.727 Y139.208 E0.01724
G1 X146.084 Y139.724 E0.0309
G1 X145.553 Y140.341 E0.03051
G1 X145.145 Y141.045 E0.0305
G1 X144.871 Y141.801 E0.03014
G1 X144.74 Y142.531 E0.0278
G1 X144.724 Y143.234 E0.02636
G1 X144.76 Y143.96 E0.02725
G1 X144.945 Y144.733 E0.02979
G1 X145.323 Y145.606 E0.03566
G1 X145.777 Y146.242 E0.02929
G1 X146.486 Y146.924 E0.03688
G1 X147.111 Y147.317 E0.02767
