;FLAVOR:RepRap
;TIME:565
;Filament used: 0.603939m
;Layer height: 0.2
;MINX:94.475
;MINY:94.475
;MINZ:0.2
;MAXX:215.525
;MAXY:215.525
;MAXZ:3.4
;Generated with Cura_SteamEngine 4.7.1
T0
M190 S65
M104 S200
M109 S200
M82 ;absolute extrusion mode
;G28  ;Home XY
;M561 ; Clear any bed transform that might be in place
;M116 H0 S5
;M116 T0 S5
;M140 S65 ;Set target temperature for the heated bed.
;M190 ;wait until bed has heated
;M104 T0 S200 ;Set target temperature for the nozzle 1.
;M109 T0 ;Wait until nozzle 1 have reached target temperature.
;G32
;G1 X0 Y0 ; Move Probe to middle of bed
;G30 ; Do a single probe
;G29 ; Probe the bed with the ABL ; **** uncomment this line if you have an always on ABL *****
;G92 E0 ; Reset Extruder
;G1 Z5.0  ; Move Z Axis up little to prevent scratching of Heat Bed
;G1 X-145 Y-145 Z0.3 F9000.0 ; Move to start position
;G1 X-145 Y100.0 Z0.3 F1500.0 E15 ; Draw the first line
;G1 X-142 Y100.0 Z0.3 F6000.0 ; Move to side a little
;G1 X-142 Y-145 Z0.3 F1500.0 E30 ; Draw the second line
;G92 E0 ; Reset Extruder
;G1 Z5.0 F9000 ; Move Z Axis up little to prevent scratching of Heat Bed
; End of custom start GCode
M83 ;relative extrusion mode
G10
;LAYER_COUNT:15
;LAYER:0
M107
G1 F900 Z0.6
G0 F3600 X99.096 Y145.301 Z0.6
;TYPE:SKIRT
G1 F900 Z0.2
G11
G1 F1200 X99.877 Y144.819 E0.0301
G1 X100.374 Y144.558 E0.01841
G1 X100.959 Y144.271 E0.02137
G1 X101.117 Y144.195 E0.00575
G1 X102.401 Y143.592 E0.04653
G1 X104.657 Y142.451 E0.08292
G1 X106.892 Y141.241 E0.08336
G1 X109.107 Y139.959 E0.08394
G1 X111.205 Y138.665 E0.08085
G1 X113.369 Y137.243 E0.08493
G1 X115.425 Y135.807 E0.08225
G1 X117.439 Y134.315 E0.08221
G1 X119.454 Y132.732 E0.08404
G1 X121.403 Y131.11 E0.08317
G1 X123.291 Y129.444 E0.08259
G1 X125.117 Y127.741 E0.08189
G1 X126.943 Y125.939 E0.08414
G1 X128.687 Y124.116 E0.08275
G1 X130.379 Y122.244 E0.08276
G1 X132.031 Y120.308 E0.08347
G1 X133.633 Y118.324 E0.08364
G1 X135.149 Y116.329 E0.08218
G1 X136.621 Y114.276 E0.08286
G1 X138.051 Y112.158 E0.08382
G1 X139.389 Y110.048 E0.08195
G1 X140.694 Y107.857 E0.08364
G1 X141.922 Y105.655 E0.08269
G1 X143.094 Y103.408 E0.08312
G1 X144.248 Y101.033 E0.08661
G1 X144.487 Y100.525 E0.01841
G1 X144.913 Y99.713 E0.03008
G1 X145.409 Y98.941 E0.0301
G1 X145.97 Y98.215 E0.03009
G1 X146.592 Y97.541 E0.03008
G1 X147.271 Y96.924 E0.03009
G1 X148.001 Y96.368 E0.0301
G1 X148.776 Y95.877 E0.03009
G1 X149.591 Y95.457 E0.03007
G1 X150.44 Y95.108 E0.03011
G1 X151.316 Y94.835 E0.03009
G1 X152.212 Y94.639 E0.03008
G1 X153.122 Y94.522 E0.03009
G1 X153.681 Y94.49 E0.01836
G1 X154.33 Y94.475 E0.02129
G1 X155.294 Y94.475 E0.03162
G1 X156.145 Y94.486 E0.02791
G1 X157.061 Y94.539 E0.03009
G1 X157.969 Y94.672 E0.0301
G1 X158.861 Y94.883 E0.03006
G1 X159.732 Y95.171 E0.03009
G1 X160.575 Y95.534 E0.0301
G1 X161.383 Y95.969 E0.0301
G1 X162.15 Y96.472 E0.03008
G1 X162.87 Y97.041 E0.0301
G1 X163.538 Y97.669 E0.03007
G1 X164.148 Y98.354 E0.03008
G1 X164.697 Y99.089 E0.03009
G1 X165.179 Y99.87 E0.0301
G1 X165.462 Y100.411 E0.02003
G1 X165.795 Y101.099 E0.02507
G1 X166.377 Y102.337 E0.04487
G1 X167.524 Y104.612 E0.08356
G1 X168.721 Y106.825 E0.08252
G1 X170.001 Y109.039 E0.08388
G1 X171.318 Y111.177 E0.08236
G1 X172.725 Y113.322 E0.08414
G1 X174.154 Y115.372 E0.08196
G1 X175.666 Y117.417 E0.08342
G1 X177.223 Y119.401 E0.08272
G1 X178.829 Y121.331 E0.08235
G1 X180.522 Y123.253 E0.08401
G1 X182.243 Y125.1 E0.0828
G1 X184.005 Y126.889 E0.08236
G1 X185.831 Y128.637 E0.08291
G1 X187.737 Y130.363 E0.08434
G1 X189.64 Y131.99 E0.08212
G1 X191.599 Y133.572 E0.08259
G1 X193.636 Y135.122 E0.08395
G1 X195.674 Y136.585 E0.08228
G1 X197.793 Y138.017 E0.08388
G1 X199.911 Y139.363 E0.08231
G1 X202.107 Y140.674 E0.08388
G1 X204.275 Y141.884 E0.08143
G1 X206.533 Y143.063 E0.08355
G1 X208.974 Y144.251 E0.08904
G1 X209.47 Y144.484 E0.01797
G1 X210.283 Y144.91 E0.0301
G1 X211.055 Y145.405 E0.03008
G1 X211.781 Y145.966 E0.03009
G1 X212.455 Y146.588 E0.03008
G1 X213.073 Y147.266 E0.03009
G1 X213.63 Y147.995 E0.03009
G1 X214.12 Y148.77 E0.03007
G1 X214.542 Y149.585 E0.0301
G1 X214.891 Y150.434 E0.03011
G1 X215.164 Y151.309 E0.03006
G1 X215.361 Y152.206 E0.03012
G1 X215.478 Y153.115 E0.03006
G1 X215.512 Y153.713 E0.01965
G1 X215.525 Y154.329 E0.02021
G1 X215.524 Y155.404 E0.03526
G1 X215.514 Y156.137 E0.02404
G1 X215.462 Y157.052 E0.03006
G1 X215.33 Y157.96 E0.03009
G1 X215.119 Y158.853 E0.0301
G1 X214.831 Y159.724 E0.03009
G1 X214.469 Y160.567 E0.03009
G1 X214.035 Y161.375 E0.03008
G1 X213.532 Y162.142 E0.03008
G1 X212.964 Y162.863 E0.0301
G1 X212.335 Y163.531 E0.03009
G1 X211.651 Y164.142 E0.03008
G1 X210.916 Y164.691 E0.03009
G1 X210.136 Y165.174 E0.03009
G1 X209.616 Y165.447 E0.01926
G1 X209.052 Y165.723 E0.02059
G1 X207.663 Y166.377 E0.05035
G1 X205.376 Y167.53 E0.084
G1 X203.155 Y168.732 E0.08283
G1 X200.99 Y169.983 E0.08201
G1 X198.823 Y171.318 E0.08348
G1 X196.696 Y172.714 E0.08345
G1 X194.617 Y174.163 E0.08312
G1 X192.577 Y175.671 E0.08321
G1 X190.598 Y177.224 E0.08251
G1 X188.669 Y178.829 E0.0823
G1 X186.747 Y180.522 E0.08401
G1 X184.9 Y182.243 E0.0828
G1 X183.111 Y184.005 E0.08236
G1 X181.345 Y185.85 E0.08377
G1 X179.653 Y187.719 E0.08269
G1 X178.006 Y189.644 E0.08309
G1 X176.417 Y191.612 E0.08296
G1 X174.885 Y193.625 E0.08297
G1 X173.407 Y195.684 E0.08313
G1 X171.994 Y197.776 E0.0828
G1 X170.637 Y199.911 E0.08297
G1 X169.343 Y202.079 E0.08281
G1 X168.099 Y204.309 E0.08375
G1 X166.938 Y206.531 E0.08223
G1 X165.741 Y208.991 E0.08973
G1 X165.52 Y209.462 E0.01706
G1 X165.095 Y210.275 E0.03009
G1 X164.6 Y211.048 E0.03011
G1 X164.04 Y211.774 E0.03007
G1 X163.419 Y212.449 E0.03008
G1 X162.741 Y213.067 E0.03009
G1 X162.012 Y213.624 E0.03009
G1 X161.237 Y214.116 E0.03011
G1 X160.422 Y214.538 E0.0301
G1 X159.574 Y214.887 E0.03008
G1 X158.699 Y215.161 E0.03007
G1 X157.803 Y215.358 E0.03009
G1 X156.893 Y215.476 E0.0301
G1 X156.32 Y215.51 E0.01883
G1 X155.671 Y215.525 E0.02129
G1 X154.556 Y215.524 E0.03657
G1 X153.857 Y215.514 E0.02293
G1 X152.942 Y215.461 E0.03006
G1 X152.034 Y215.328 E0.0301
G1 X151.141 Y215.117 E0.0301
G1 X150.27 Y214.829 E0.03009
G1 X149.428 Y214.466 E0.03007
G1 X148.62 Y214.031 E0.0301
G1 X147.853 Y213.528 E0.03008
G1 X147.133 Y212.959 E0.0301
G1 X146.465 Y212.33 E0.03009
G1 X145.854 Y211.646 E0.03008
G1 X145.306 Y210.91 E0.0301
G1 X144.823 Y210.13 E0.03009
G1 X144.558 Y209.623 E0.01876
G1 X144.207 Y208.905 E0.02621
G1 X143.6 Y207.614 E0.04679
G1 X142.447 Y205.333 E0.08383
G1 X141.255 Y203.13 E0.08215
G1 X139.971 Y200.912 E0.08406
G1 X138.656 Y198.781 E0.08213
G1 X137.271 Y196.67 E0.08281
G1 X135.81 Y194.579 E0.08366
G1 X134.311 Y192.553 E0.08266
G1 X132.758 Y190.577 E0.08243
G1 X131.122 Y188.612 E0.08386
G1 X129.448 Y186.713 E0.08303
G1 X127.75 Y184.893 E0.08164
G1 X125.947 Y183.065 E0.08421
G1 X124.122 Y181.319 E0.08284
G1 X122.244 Y179.62 E0.08306
G1 X120.318 Y177.975 E0.08308
G1 X118.349 Y176.387 E0.08297
G1 X116.326 Y174.849 E0.08335
G1 X114.299 Y173.395 E0.08182
G1 X112.19 Y171.971 E0.08346
G1 X110.035 Y170.604 E0.0837
G1 X107.88 Y169.321 E0.08226
G1 X105.642 Y168.072 E0.08406
G1 X103.43 Y166.918 E0.08183
G1 X101.119 Y165.795 E0.08427
G1 X100.523 Y165.514 E0.02161
G1 X99.711 Y165.087 E0.03009
G1 X98.94 Y164.591 E0.03007
G1 X98.214 Y164.03 E0.03009
G1 X97.54 Y163.407 E0.0301
G1 X96.923 Y162.729 E0.03007
G1 X96.367 Y161.999 E0.0301
G1 X95.877 Y161.223 E0.0301
G1 X95.456 Y160.408 E0.03009
G1 X95.108 Y159.559 E0.03009
G1 X94.835 Y158.684 E0.03006
G1 X94.639 Y157.787 E0.03011
G1 X94.522 Y156.877 E0.03009
G1 X94.49 Y156.32 E0.0183
G1 X94.475 Y155.671 E0.02129
G1 X94.476 Y154.515 E0.03792
G1 X94.486 Y153.849 E0.02185
G1 X94.54 Y152.933 E0.0301
G1 X94.673 Y152.026 E0.03007
G1 X94.885 Y151.133 E0.0301
G1 X95.174 Y150.262 E0.0301
G1 X95.537 Y149.42 E0.03007
G1 X95.973 Y148.612 E0.03011
G1 X96.477 Y147.846 E0.03007
G1 X97.046 Y147.126 E0.0301
G1 X97.675 Y146.459 E0.03007
G1 X98.36 Y145.849 E0.03008
G1 X98.363 Y145.847 E0.00012
G0 F1080 X99.096 Y145.301
G0 F3600 X99.431 Y145.498
G1 F1200 X100.528 Y144.872 E0.04143
G1 X101.113 Y144.585 E0.02137
G1 X102.537 Y143.914 E0.05163
G1 X104.839 Y142.751 E0.08459
G1 X107.048 Y141.554 E0.08241
G1 X109.254 Y140.278 E0.08359
G1 X111.436 Y138.932 E0.08409
G1 X113.562 Y137.536 E0.08342
G1 X115.607 Y136.107 E0.08183
G1 X117.671 Y134.578 E0.08425
G1 X119.668 Y133.01 E0.08328
G1 X121.61 Y131.393 E0.08288
G1 X123.533 Y129.697 E0.0841
G1 X125.372 Y127.982 E0.08248
G1 X127.194 Y126.183 E0.08398
G1 X128.952 Y124.345 E0.08342
G1 X130.657 Y122.459 E0.08339
G1 X132.29 Y120.546 E0.0825
G1 X133.888 Y118.567 E0.08343
G1 X135.432 Y116.535 E0.0837
G1 X136.915 Y114.466 E0.08349
G1 X138.329 Y112.371 E0.0829
G1 X139.704 Y110.203 E0.0842
G1 X140.987 Y108.048 E0.08226
G1 X142.232 Y105.818 E0.08377
G1 X143.406 Y103.566 E0.0833
G1 X144.54 Y101.233 E0.08508
G1 X144.803 Y100.674 E0.02026
G1 X145.223 Y99.876 E0.02958
G1 X145.713 Y99.118 E0.0296
G1 X146.267 Y98.406 E0.02959
G1 X146.882 Y97.747 E0.02956
G1 X147.553 Y97.144 E0.02959
G1 X148.275 Y96.604 E0.02957
G1 X149.042 Y96.129 E0.02959
G1 X149.848 Y95.724 E0.02959
G1 X150.687 Y95.392 E0.02959
G1 X151.552 Y95.136 E0.02959
G1 X152.436 Y94.957 E0.02958
G1 X153.692 Y94.84 E0.04137
G1 X154.33 Y94.825 E0.02093
G1 X155.294 Y94.825 E0.03162
G1 X156.14 Y94.836 E0.02775
G1 X157.041 Y94.889 E0.0296
G1 X157.933 Y95.021 E0.02957
G1 X158.81 Y95.232 E0.02959
G1 X159.665 Y95.52 E0.02959
G1 X160.491 Y95.882 E0.02958
G1 X161.281 Y96.316 E0.02956
G1 X162.031 Y96.818 E0.0296
G1 X162.732 Y97.385 E0.02957
G1 X163.381 Y98.012 E0.0296
G1 X163.972 Y98.693 E0.02957
G1 X164.5 Y99.425 E0.0296
G1 X165.147 Y100.564 E0.04296
G1 X165.479 Y101.248 E0.02494
G1 X166.081 Y102.531 E0.04648
G1 X167.21 Y104.766 E0.08213
G1 X168.422 Y107.009 E0.08362
G1 X169.69 Y109.202 E0.08309
G1 X171.024 Y111.367 E0.08341
G1 X172.425 Y113.503 E0.08378
G1 X173.851 Y115.549 E0.0818
G1 X175.39 Y117.631 E0.08492
G1 X176.945 Y119.613 E0.08263
G1 X178.576 Y121.573 E0.08363
G1 X180.253 Y123.477 E0.08322
G1 X182.002 Y125.355 E0.08417
G1 X183.762 Y127.14 E0.08222
G1 X185.601 Y128.902 E0.08353
G1 X187.486 Y130.608 E0.08339
G1 X189.442 Y132.281 E0.08442
G1 X191.377 Y133.844 E0.08158
G1 X193.407 Y135.388 E0.08365
G1 X195.484 Y136.879 E0.08386
G1 X197.579 Y138.295 E0.08294
G1 X199.755 Y139.678 E0.08456
G1 X201.902 Y140.959 E0.082
G1 X204.128 Y142.201 E0.08361
G1 X206.402 Y143.389 E0.08415
G1 X208.738 Y144.526 E0.08521
G1 X209.321 Y144.8 E0.02113
G1 X210.12 Y145.22 E0.02961
G1 X210.878 Y145.709 E0.02959
G1 X211.59 Y146.263 E0.02959
G1 X212.25 Y146.878 E0.02959
G1 X212.853 Y147.548 E0.02956
G1 X213.394 Y148.27 E0.02959
G1 X213.869 Y149.037 E0.02959
G1 X214.274 Y149.843 E0.02959
G1 X214.607 Y150.681 E0.02958
G1 X214.864 Y151.546 E0.0296
G1 X215.043 Y152.43 E0.02958
G1 X215.162 Y153.723 E0.04259
G1 X215.175 Y154.329 E0.01988
G1 X215.174 Y155.399 E0.03509
G1 X215.164 Y156.132 E0.02404
G1 X215.112 Y157.032 E0.02957
G1 X214.98 Y157.925 E0.02961
G1 X214.77 Y158.802 E0.02958
G1 X214.482 Y159.657 E0.02959
G1 X214.121 Y160.483 E0.02957
G1 X213.687 Y161.274 E0.02959
G1 X213.185 Y162.024 E0.0296
G1 X212.619 Y162.726 E0.02958
G1 X211.993 Y163.375 E0.02957
G1 X211.312 Y163.966 E0.02957
G1 X210.581 Y164.495 E0.0296
G1 X209.462 Y165.132 E0.04223
G1 X208.752 Y165.479 E0.02592
G1 X207.469 Y166.081 E0.04648
G1 X205.236 Y167.208 E0.08204
G1 X202.984 Y168.427 E0.08399
G1 X200.801 Y169.688 E0.08269
G1 X198.633 Y171.024 E0.08352
G1 X196.497 Y172.425 E0.08378
G1 X194.412 Y173.879 E0.08337
G1 X192.385 Y175.377 E0.08267
G1 X190.368 Y176.96 E0.0841
G1 X188.444 Y178.561 E0.08209
G1 X186.523 Y180.253 E0.08396
G1 X184.645 Y182.002 E0.08417
G1 X182.86 Y183.762 E0.08222
G1 X181.098 Y185.601 E0.08353
G1 X179.376 Y187.504 E0.08418
G1 X177.749 Y189.407 E0.08212
G1 X176.129 Y191.412 E0.08454
G1 X174.607 Y193.412 E0.08243
G1 X173.124 Y195.477 E0.08339
G1 X171.716 Y197.562 E0.08252
G1 X170.322 Y199.755 E0.08523
G1 X169.034 Y201.914 E0.08246
G1 X167.803 Y204.118 E0.0828
G1 X166.612 Y206.4 E0.08443
G1 X165.488 Y208.709 E0.08423
G1 X165.204 Y209.314 E0.02192
G1 X164.785 Y210.112 E0.02956
G1 X164.296 Y210.871 E0.02961
G1 X163.743 Y211.583 E0.02957
G1 X163.129 Y212.244 E0.02959
G1 X162.458 Y212.847 E0.02959
G1 X161.737 Y213.389 E0.02958
G1 X160.971 Y213.864 E0.02956
G1 X160.165 Y214.27 E0.0296
G1 X159.327 Y214.603 E0.02958
G1 X158.462 Y214.861 E0.02961
G1 X157.578 Y215.041 E0.02959
G1 X156.309 Y215.16 E0.0418
G1 X155.671 Y215.175 E0.02093
G1 X154.561 Y215.174 E0.03641
G1 X153.862 Y215.164 E0.02293
G1 X152.962 Y215.111 E0.02957
G1 X152.07 Y214.979 E0.02957
G1 X151.193 Y214.768 E0.02959
G1 X150.338 Y214.48 E0.02959
G1 X149.512 Y214.118 E0.02958
G1 X148.721 Y213.684 E0.02959
G1 X147.972 Y213.181 E0.02959
G1 X147.27 Y212.615 E0.02958
G1 X146.622 Y211.988 E0.02957
G1 X146.031 Y211.306 E0.0296
G1 X145.503 Y210.575 E0.02958
G1 X144.872 Y209.469 E0.04176
G1 X144.595 Y208.904 E0.02064
G1 X144.524 Y208.756 E0.00538
G1 X143.923 Y207.478 E0.04632
G1 X142.754 Y205.166 E0.08497
G1 X141.552 Y202.944 E0.08286
G1 X140.3 Y200.78 E0.082
G1 X138.939 Y198.575 E0.08499
G1 X137.542 Y196.448 E0.08346
G1 X136.11 Y194.396 E0.08207
G1 X134.587 Y192.339 E0.08395
G1 X133.022 Y190.347 E0.08309
G1 X131.388 Y188.384 E0.08377
G1 X129.719 Y186.492 E0.08275
G1 X127.973 Y184.62 E0.08396
G1 X126.208 Y182.831 E0.08243
G1 X124.351 Y181.054 E0.0843
G1 X122.478 Y179.36 E0.08283
G1 X120.555 Y177.717 E0.08296
G1 X118.571 Y176.116 E0.08362
G1 X116.532 Y174.566 E0.08401
G1 X114.489 Y173.101 E0.08246
G1 X112.363 Y171.666 E0.08413
G1 X110.232 Y170.313 E0.08279
G1 X108.045 Y169.011 E0.08348
G1 X105.832 Y167.777 E0.08311
G1 X103.575 Y166.599 E0.0835
G1 X101.235 Y165.462 E0.08533
G1 X100.673 Y165.197 E0.02038
G1 X99.874 Y164.777 E0.02961
G1 X99.117 Y164.288 E0.02956
G1 X98.405 Y163.733 E0.02961
G1 X97.746 Y163.118 E0.02956
G1 X97.143 Y162.446 E0.02961
G1 X96.603 Y161.724 E0.02957
G1 X96.128 Y160.957 E0.02959
G1 X95.723 Y160.151 E0.02959
G1 X95.392 Y159.312 E0.02958
G1 X95.136 Y158.448 E0.02956
G1 X94.957 Y157.563 E0.02961
G1 X94.84 Y156.309 E0.04131
G1 X94.825 Y155.671 E0.02093
G1 X94.826 Y154.52 E0.03775
G1 X94.836 Y153.854 E0.02185
G1 X94.89 Y152.954 E0.02957
G1 X95.023 Y152.062 E0.02958
G1 X95.234 Y151.185 E0.02959
G1 X95.523 Y150.33 E0.0296
G1 X95.885 Y149.504 E0.02958
G1 X96.32 Y148.714 E0.02958
G1 X96.823 Y147.965 E0.02959
G1 X97.39 Y147.264 E0.02957
G1 X98.017 Y146.616 E0.02957
G1 X98.69 Y146.033 E0.0292
G0 F1080 X98.699 Y146.025
G0 X99.431 Y145.498
G10
G1 F900 Z0.6
;MESH:calibration_100x100_50mm_dia_circle_X_Y_letters.stl
G0 F3600 X155.001 Y185.776 Z0.6
;TYPE:WALL-INNER
G1 F900 Z0.2
G11
G1 F1200 X155.309 Y186.276 E0.01926
G1 X154.693 Y186.276 E0.0202
G1 X154.955 Y185.851 E0.01638
G0 F1080 X155.001 Y185.776
G0 F3600 X155.622 Y179.557
G0 X163.952 Y176.613
G0 X167.997 Y174.451
G0 X171.542 Y171.542
G0 X174.45 Y167.997
G0 X176.613 Y163.952
G0 X177.811 Y160.001
G0 X178.87 Y155.126
G1 F1200 X155.126 Y155.126 E0.77877
G1 X155.126 Y178.87 E0.77877
G1 X159.66 Y178.423 E0.14943
G1 X164.14 Y177.065 E0.15354
G1 X168.268 Y174.857 E0.15354
G1 X171.888 Y171.888 E0.15356
G1 X174.856 Y168.268 E0.15354
G1 X177.065 Y164.14 E0.15356
G1 X178.423 Y159.66 E0.15354
G1 X178.781 Y156.035 E0.11947
G0 F1080 X178.87 Y155.126
G0 F3600 X178.484 Y155.476
G1 F1200 X178.293 Y155.476 E0.00626
G1 X178.292 Y155.476 E0.00003
G1 X155.476 Y155.476 E0.74833
G1 X155.476 Y178.292 E0.74833
G1 X155.476 Y178.293 E0.00003
G1 X155.476 Y178.484 E0.00626
G1 X155.667 Y178.466 E0.00396
G1 X159.591 Y178.078 E0.12933
G1 X164.005 Y176.74 E0.15128
G1 X168.073 Y174.565 E0.1513
G1 X171.639 Y171.639 E0.15129
G1 X174.564 Y168.073 E0.15127
G1 X176.74 Y164.005 E0.15131
G1 X178.078 Y159.591 E0.15128
G1 X178.466 Y155.667 E0.12933
G1 X178.484 Y155.476 E0.00396
G0 F3600 X178.107 Y155.993
;TYPE:WALL-OUTER
G1 F1200 X178.125 Y155.801 E0.00632
G1 X177.933 Y155.801 E0.00397
G1 X177.932 Y155.801 E0.00003
G1 X155.801 Y155.801 E0.72587
G1 X155.801 Y177.932 E0.72587
G1 X155.801 Y177.933 E0.00003
G1 X155.801 Y178.125 E0.0063
G1 X155.993 Y178.107 E0.00399
G1 X159.527 Y177.758 E0.11647
G1 X163.88 Y176.438 E0.14919
