;FLAVOR:RepRap
;TIME:9931
;Filament used: 8.41102m
;Layer height: 0.2
;MINX:102.778
;MINY:106.352
;MINZ:0.2
;MAXX:239.276
;MAXY:208.848
;MAXZ:18.4
;Generated with Cura_SteamEngine 4.7.1
T0
M190 S65
M104 S200
M109 S200
M82 ;absolute extrusion mode
;G28  ;Home XY
;M561 ; Clear any bed transform that might be in place
;M116 H0 S5
;M116 T0 S5
;M140 S65 ;Set target temperature for the heated bed.
;M190 ;wait until bed has heated
;M104 T0 S200 ;Set target temperature for the nozzle 1.
;M109 T0 ;Wait until nozzle 1 have reached target temperature.
;G32
;G1 X0 Y0 ; Move Probe to middle of bed
;G30 ; Do a single probe
;G29 ; Probe the bed with the ABL ; **** uncomment this line if you have an always on ABL *****
;G92 E0 ; Reset Extruder
;G1 Z5.0  ; Move Z Axis up little to prevent scratching of Heat Bed
;G1 X-145 Y-145 Z0.3 F9000.0 ; Move to start position
;G1 X-145 Y100.0 Z0.3 F1500.0 E15 ; Draw the first line
;G1 X-142 Y100.0 Z0.3 F6000.0 ; Move to side a little
;G1 X-142 Y-145 Z0.3 F1500.0 E30 ; Draw the second line
;G92 E0 ; Reset Extruder
;G1 Z5.0 F9000 ; Move Z Axis up little to prevent scratching of Heat Bed
; End of custom start GCode
M83 ;relative extrusion mode
G10
;LAYER_COUNT:92
;LAYER:0
M107
G1 F900 Z0.6
G0 F4114.3 X107.036 Y114.87 Z0.6
;TYPE:SKIRT
G1 F900 Z0.2
G11
G1 F1200 X107.722 Y114.256 E0.03451
G1 X108.232 Y113.863 E0.02413
G1 X108.76 Y113.486 E0.02432
G1 X108.898 Y113.392 E0.00626
G1 X109.68 Y112.908 E0.03447
G1 X110.214 Y112.628 E0.0226
G1 X110.842 Y112.326 E0.02612
G1 X110.977 Y112.265 E0.00555
G1 X111.832 Y111.923 E0.03452
G1 X112.448 Y111.728 E0.02422
G1 X113.036 Y111.563 E0.02289
G1 X113.143 Y111.535 E0.00415
G1 X114.042 Y111.341 E0.03447
G1 X114.761 Y111.244 E0.0272
G1 X115.47 Y111.176 E0.0267
G1 X116.333 Y111.114 E0.03243
G1 X117.858 Y111.027 E0.05726
G1 X120.356 Y110.812 E0.09398
G1 X122.865 Y110.525 E0.09466
G1 X125.376 Y110.165 E0.09509
G1 X127.869 Y109.736 E0.09482
G1 X130.334 Y109.241 E0.09424
G1 X132.802 Y108.67 E0.09495
G1 X135.252 Y108.03 E0.09492
G1 X138.281 Y107.137 E0.11837
G1 X139.197 Y106.849 E0.03599
G1 X140.087 Y106.611 E0.03453
G1 X140.994 Y106.452 E0.03452
G1 X142.202 Y106.362 E0.04541
G1 X142.808 Y106.352 E0.02272
G1 X143.428 Y106.356 E0.02324
G1 X144.347 Y106.408 E0.0345
G1 X145.128 Y106.516 E0.02955
G1 X145.847 Y106.666 E0.02753
G1 X146.582 Y106.847 E0.02837
G1 X147.675 Y107.132 E0.04234
G1 X150.177 Y107.709 E0.09625
G1 X152.575 Y108.193 E0.0917
G1 X155.154 Y108.636 E0.09809
G1 X157.605 Y108.986 E0.09281
G1 X160.184 Y109.281 E0.0973
G1 X162.646 Y109.491 E0.09262
G1 X165.186 Y109.636 E0.09536
G1 X167.734 Y109.709 E0.09555
G1 X170.246 Y109.711 E0.09416
G1 X172.789 Y109.64 E0.09536
G1 X175.308 Y109.498 E0.09457
G1 X177.8 Y109.288 E0.09374
G1 X180.345 Y109 E0.09601
G1 X182.839 Y108.646 E0.09442
G1 X185.322 Y108.221 E0.09443
G1 X187.814 Y107.722 E0.09526
G1 X188.814 Y107.497 E0.03842
G1 X189.308 Y107.394 E0.01892
G1 X190.18 Y107.252 E0.03312
G1 X190.313 Y107.236 E0.00502
G1 X190.864 Y107.184 E0.02075
G1 X191.51 Y107.144 E0.02426
G1 X191.877 Y107.134 E0.01376
G1 X192.572 Y107.126 E0.02605
G1 X225.118 Y107.128 E1.21996
G1 X225.645 Y107.135 E0.01976
G1 X226.335 Y107.167 E0.02589
G1 X227.085 Y107.226 E0.0282
G1 X227.999 Y107.338 E0.03452
G1 X229.161 Y107.599 E0.04464
G1 X229.727 Y107.765 E0.02211
G1 X230.006 Y107.853 E0.01097
G1 X230.871 Y108.168 E0.03451
G1 X231.616 Y108.511 E0.03074
G1 X232.188 Y108.811 E0.02421
G1 X232.531 Y109.003 E0.01473
G1 X233.314 Y109.487 E0.0345
G1 X233.961 Y109.964 E0.03013
G1 X234.41 Y110.327 E0.02164
G1 X234.629 Y110.512 E0.01075
G1 X235.306 Y111.137 E0.03454
G1 X235.873 Y111.754 E0.03141
G1 X236.258 Y112.216 E0.02254
G1 X236.46 Y112.47 E0.01216
G1 X237.002 Y113.215 E0.03453
G1 X237.403 Y113.871 E0.02882
G1 X237.706 Y114.425 E0.02367
G1 X237.864 Y114.732 E0.01294
G1 X238.385 Y115.919 E0.04859
G1 X238.559 Y116.422 E0.01995
G1 X238.791 Y117.194 E0.03022
G1 X239.007 Y118.089 E0.03451
G1 X239.142 Y118.967 E0.0333
G1 X239.231 Y119.876 E0.03424
G1 X239.248 Y120.14 E0.00992
G1 X239.269 Y120.691 E0.02067
G1 X239.276 Y121.311 E0.02324
G1 X239.276 Y188.585 E2.52171
G1 X239.275 Y188.749 E0.00615
G1 X239.266 Y189.329 E0.02174
G1 X239.235 Y189.982 E0.0245
G1 X239.192 Y190.538 E0.0209
G1 X239.152 Y190.964 E0.01604
G1 X239.016 Y191.874 E0.03449
G1 X238.789 Y192.811 E0.03614
G1 X238.633 Y193.34 E0.02067
G1 X238.55 Y193.603 E0.01034
G1 X238.235 Y194.468 E0.03451
G1 X237.878 Y195.241 E0.03192
G1 X237.617 Y195.74 E0.02111
G1 X237.448 Y196.047 E0.01314
G1 X236.969 Y196.833 E0.0345
G1 X236.511 Y197.466 E0.02929
G1 X236.091 Y197.99 E0.02517
G1 X235.88 Y198.239 E0.01223
G1 X235.255 Y198.915 E0.03451
G1 X234.645 Y199.473 E0.03099
G1 X234.195 Y199.849 E0.02198
G1 X233.954 Y200.041 E0.01155
G1 X233.026 Y200.702 E0.04271
G1 X232.985 Y200.728 E0.00182
G1 X232.411 Y201.067 E0.02499
G1 X231.751 Y201.42 E0.02806
G1 X230.918 Y201.811 E0.03449
G1 X230.203 Y202.079 E0.02862
G1 X229.596 Y202.274 E0.0239
G1 X229.244 Y202.377 E0.01375
G1 X228.35 Y202.597 E0.03451
G1 X227.418 Y202.741 E0.03535
G1 X226.768 Y202.808 E0.02449
G1 X225.88 Y202.879 E0.03339
G1 X223.28 Y203.125 E0.09789
G1 X220.797 Y203.431 E0.09378
G1 X218.269 Y203.816 E0.09585
G1 X215.805 Y204.262 E0.09386
G1 X213.35 Y204.779 E0.09404
G1 X210.851 Y205.379 E0.09634
G1 X208.454 Y206.028 E0.09308
G1 X205.984 Y206.771 E0.09668
G1 X203.585 Y207.567 E0.09475
G1 X202.139 Y208.091 E0.05765
G1 X201.64 Y208.264 E0.0198
G1 X200.757 Y208.524 E0.0345
G1 X199.855 Y208.707 E0.0345
G1 X198.94 Y208.81 E0.03451
G1 X198.39 Y208.834 E0.02064
G1 X197.647 Y208.847 E0.02786
G1 X197.306 Y208.848 E0.01278
G1 X196.762 Y208.84 E0.02039
G1 X195.843 Y208.786 E0.03451
G1 X194.824 Y208.632 E0.03863
G1 X193.93 Y208.413 E0.0345
G1 X192.662 Y207.953 E0.05056
G1 X192.273 Y207.782 E0.01593
G1 X190.388 Y206.931 E0.07752
G1 X188.081 Y205.966 E0.09374
G1 X185.777 Y205.077 E0.09257
G1 X183.339 Y204.216 E0.09692
G1 X180.929 Y203.442 E0.09488
G1 X178.445 Y202.72 E0.09696
G1 X177.463 Y202.457 E0.03811
G1 X177.249 Y202.395 E0.00835
G1 X174.721 Y201.705 E0.09823
G1 X172.268 Y201.11 E0.09461
G1 X169.806 Y200.585 E0.09436
G1 X167.309 Y200.127 E0.09516
G1 X164.795 Y199.738 E0.09536
G1 X162.3 Y199.425 E0.09426
G1 X159.78 Y199.179 E0.09491
G1 X157.261 Y199.007 E0.09464
G1 X154.742 Y198.905 E0.0945
G1 X152.345 Y198.874 E0.08986
G1 X128.122 Y198.873 E0.90798
G1 X127.469 Y198.864 E0.02448
G1 X126.831 Y198.836 E0.02394
G1 X125.973 Y198.762 E0.03228
G1 X125.771 Y198.738 E0.00763
G1 X124.704 Y198.555 E0.04058
G1 X124.588 Y198.529 E0.00446
G1 X124.055 Y198.395 E0.0206
G1 X123.722 Y198.302 E0.01296
G1 X122.651 Y197.941 E0.04236
G1 X122.538 Y197.896 E0.00456
G1 X122.076 Y197.699 E0.01883
G1 X121.748 Y197.55 E0.0135
G1 X120.545 Y196.907 E0.05113
G1 X120.05 Y196.589 E0.02205
G1 X119.857 Y196.458 E0.00874
G1 X118.883 Y195.711 E0.04601
G1 X118.429 Y195.319 E0.02248
G1 X117.861 Y194.791 E0.02907
G1 X117.323 Y194.237 E0.02895
G1 X106.846 Y183.079 E0.57373
G1 X106.474 Y182.673 E0.02064
G1 X106.048 Y182.166 E0.02482
G1 X106.043 Y182.17 E0.00024
G1 X105.653 Y181.687 E0.02327
G1 X105.106 Y180.946 E0.03452
G1 X104.718 Y180.331 E0.02726
G1 X104.248 Y179.473 E0.03667
G1 X104.08 Y179.13 E0.01432
G1 X103.711 Y178.286 E0.03453
G1 X103.537 Y177.801 E0.01931
G1 X103.482 Y177.635 E0.00656
G1 X103.326 Y177.122 E0.0201
G1 X103.223 Y176.749 E0.0145
G1 X103.017 Y175.852 E0.0345
G1 X102.923 Y175.243 E0.0231
G1 X102.854 Y174.615 E0.02368
G1 X102.833 Y174.358 E0.00967
G1 X102.8 Y173.69 E0.02507
G1 X102.78 Y172.602 E0.04079
G1 X102.778 Y172.406 E0.00735
G1 X102.784 Y125.283 E1.76637
G1 X102.793 Y124.628 E0.02455
G1 X102.82 Y124.005 E0.02337
G1 X102.874 Y123.316 E0.02591
G1 X102.891 Y123.149 E0.00629
G1 X103.024 Y122.238 E0.03451
G1 X103.157 Y121.636 E0.02311
G1 X103.299 Y121.083 E0.0214
G1 X103.344 Y120.92 E0.00634
G1 X103.628 Y120.044 E0.03452
G1 X103.888 Y119.408 E0.02576
G1 X104.186 Y118.751 E0.02704
G1 X104.218 Y118.684 E0.00278
G1 X104.65 Y117.871 E0.03451
G1 X105.002 Y117.314 E0.0247
G1 X105.379 Y116.764 E0.02499
G1 X105.46 Y116.651 E0.00521
G1 X106.028 Y115.927 E0.03449
G1 X106.474 Y115.439 E0.02478
G0 F1080 X106.476 Y115.437
G0 X106.948 Y114.956
G0 X107.036 Y114.87
G0 F4114.3 X107.316 Y115.156
G1 F1200 X107.989 Y114.554 E0.03385
G1 X108.467 Y114.187 E0.02259
G1 X108.985 Y113.817 E0.02386
G1 X109.123 Y113.723 E0.00626
G1 X109.891 Y113.248 E0.03385
G1 X110.389 Y112.987 E0.02108
G1 X111.007 Y112.691 E0.02569
G1 X111.142 Y112.63 E0.00555
G1 X111.981 Y112.295 E0.03386
G1 X112.557 Y112.113 E0.02264
G1 X113.137 Y111.95 E0.02258
G1 X113.244 Y111.922 E0.00415
G1 X114.127 Y111.733 E0.03385
G1 X114.801 Y111.642 E0.02549
G1 X115.499 Y111.575 E0.02628
G1 X116.197 Y111.524 E0.02623
G1 X117.844 Y111.429 E0.06184
G1 X120.403 Y111.209 E0.09628
G1 X122.931 Y110.919 E0.09538
G1 X125.423 Y110.562 E0.09436
G1 X127.95 Y110.128 E0.09611
G1 X130.431 Y109.629 E0.09486
G1 X132.897 Y109.059 E0.09487
G1 X135.328 Y108.424 E0.09418
G1 X138.455 Y107.502 E0.1222
G1 X139.317 Y107.231 E0.03387
G1 X140.19 Y106.998 E0.03387
G1 X141.08 Y106.844 E0.03386
G1 X142.209 Y106.762 E0.04243
G1 X142.815 Y106.752 E0.02272
G1 X143.422 Y106.756 E0.02275
G1 X144.324 Y106.808 E0.03387
G1 X145.06 Y106.91 E0.02785
G1 X145.751 Y107.055 E0.02647
G1 X146.62 Y107.27 E0.03356
G1 X147.59 Y107.523 E0.03758
G1 X150.079 Y108.097 E0.09575
G1 X152.494 Y108.584 E0.09235
G1 X155.107 Y109.033 E0.09938
G1 X157.57 Y109.385 E0.09326
G1 X160.106 Y109.675 E0.09568
G1 X162.658 Y109.893 E0.09601
G1 X165.154 Y110.036 E0.09371
G1 X167.722 Y110.109 E0.0963
G1 X170.257 Y110.111 E0.09502
G1 X172.788 Y110.04 E0.09491
G1 X175.328 Y109.897 E0.09536
G1 X177.877 Y109.682 E0.09589
G1 X180.374 Y109.399 E0.0942
G1 X182.897 Y109.042 E0.09551
G1 X185.39 Y108.615 E0.09481
G1 X187.942 Y108.104 E0.09756
G1 X188.902 Y107.888 E0.03688
G1 X189.388 Y107.786 E0.01861
G1 X190.228 Y107.649 E0.0319
G1 X190.361 Y107.633 E0.00502
G1 X190.891 Y107.583 E0.01995
G1 X191.526 Y107.544 E0.02385
G1 X191.882 Y107.534 E0.01335
G1 X192.572 Y107.526 E0.02587
G1 X225.112 Y107.528 E1.21973
G1 X225.639 Y107.535 E0.01976
G1 X226.304 Y107.565 E0.02495
G1 X227.054 Y107.624 E0.0282
G1 X227.95 Y107.735 E0.03384
G1 X229.052 Y107.984 E0.04235
G1 X229.606 Y108.146 E0.02164
G1 X229.885 Y108.234 E0.01097
G1 X230.734 Y108.544 E0.03388
G1 X231.435 Y108.867 E0.02893
G1 X231.992 Y109.16 E0.02359
G1 X232.335 Y109.352 E0.01473
G1 X233.103 Y109.827 E0.03385
G1 X233.711 Y110.276 E0.02833
G1 X234.152 Y110.633 E0.02127
G1 X234.371 Y110.818 E0.01075
G1 X235.035 Y111.431 E0.03387
G1 X235.568 Y112.013 E0.02958
G1 X235.945 Y112.465 E0.02206
G1 X236.147 Y112.719 E0.01216
G1 X236.678 Y113.45 E0.03387
G1 X237.054 Y114.067 E0.02708
G1 X237.35 Y114.608 E0.02312
G1 X237.508 Y114.915 E0.01294
G1 X238.01 Y116.057 E0.04676
G1 X238.177 Y116.542 E0.01923
G1 X238.406 Y117.305 E0.02986
G1 X238.618 Y118.183 E0.03386
G1 X238.744 Y119.011 E0.03139
G1 X238.832 Y119.902 E0.03356
G1 X238.849 Y120.166 E0.00992
G1 X238.869 Y120.696 E0.01988
G1 X238.876 Y121.311 E0.02305
G1 X238.876 Y188.585 E2.52171
G1 X238.875 Y188.743 E0.00592
G1 X238.866 Y189.323 E0.02174
G1 X238.837 Y189.952 E0.0236
G1 X238.794 Y190.508 E0.0209
G1 X238.754 Y190.922 E0.01559
G1 X238.62 Y191.815 E0.03385
G1 X238.405 Y192.7 E0.03414
G1 X238.251 Y193.22 E0.02033
G1 X238.168 Y193.483 E0.01034
G1 X237.858 Y194.331 E0.03384
G1 X237.522 Y195.059 E0.03005
G1 X237.267 Y195.547 E0.02064
G1 X237.098 Y195.854 E0.01314
G1 X236.627 Y196.625 E0.03387
G1 X236.196 Y197.219 E0.02751
G1 X235.786 Y197.731 E0.02459
G1 X235.575 Y197.98 E0.01223
G1 X234.961 Y198.643 E0.03387
G1 X234.387 Y199.168 E0.02916
G1 X233.946 Y199.536 E0.02153
G1 X233.705 Y199.728 E0.01155
G1 X232.812 Y200.364 E0.0411
G1 X232.771 Y200.39 E0.00182
G1 X232.219 Y200.716 E0.02403
G1 X231.566 Y201.066 E0.02777
G1 X230.748 Y201.448 E0.03384
G1 X230.076 Y201.7 E0.0269
G1 X229.484 Y201.891 E0.02332
G1 X229.132 Y201.994 E0.01375
G1 X228.254 Y202.209 E0.03388
G1 X227.374 Y202.344 E0.03337
G1 X226.736 Y202.409 E0.02404
G1 X225.878 Y202.478 E0.03227
G1 X223.23 Y202.728 E0.0997
G1 X220.759 Y203.033 E0.09333
G1 X218.209 Y203.421 E0.09668
G1 X215.723 Y203.871 E0.0947
G1 X213.238 Y204.394 E0.09519
G1 X210.758 Y204.989 E0.0956
G1 X208.349 Y205.642 E0.09356
G1 X205.88 Y206.385 E0.09665
G1 X203.438 Y207.195 E0.09644
G1 X202.003 Y207.715 E0.05721
G1 X201.511 Y207.885 E0.01951
G1 X200.644 Y208.14 E0.03388
G1 X199.759 Y208.317 E0.03383
G1 X198.861 Y208.415 E0.03386
G1 X198.383 Y208.434 E0.01793
G1 X197.64 Y208.447 E0.02786
G1 X197.312 Y208.448 E0.01229
G1 X196.768 Y208.44 E0.02039
G1 X195.866 Y208.387 E0.03387
G1 X194.903 Y208.24 E0.03652
G1 X194.026 Y208.024 E0.03386
G1 X192.822 Y207.586 E0.04802
G1 X192.438 Y207.417 E0.01573
G1 X190.571 Y206.574 E0.07679
G1 X188.231 Y205.596 E0.09507
G1 X185.918 Y204.703 E0.09294
G1 X183.457 Y203.834 E0.09783
G1 X181.048 Y203.06 E0.09485
G1 X178.573 Y202.34 E0.09662
G1 X177.775 Y202.128 E0.03095
G1 X177.384 Y202.017 E0.01524
G1 X174.824 Y201.318 E0.09947
G1 X172.366 Y200.723 E0.0948
G1 X169.863 Y200.189 E0.09593
G1 X167.371 Y199.731 E0.09498
G1 X164.869 Y199.344 E0.0949
G1 X162.356 Y199.028 E0.09494
G1 X159.81 Y198.78 E0.09589
G1 X157.304 Y198.609 E0.09415
G1 X154.727 Y198.505 E0.09668
G1 X152.35 Y198.474 E0.08911
G1 X128.127 Y198.473 E0.90798
G1 X127.474 Y198.464 E0.02448
G1 X126.861 Y198.437 E0.023
G1 X126.021 Y198.365 E0.0316
G1 X125.819 Y198.341 E0.00763
G1 X124.791 Y198.165 E0.03909
G1 X124.675 Y198.139 E0.00446
G1 X124.162 Y198.01 E0.01983
G1 X123.829 Y197.917 E0.01296
G1 X122.799 Y197.569 E0.04075
G1 X122.241 Y197.335 E0.02268
G1 X121.913 Y197.186 E0.0135
G1 X120.756 Y196.567 E0.04919
G1 X120.275 Y196.259 E0.02141
G1 X120.082 Y196.128 E0.00874
G1 X119.144 Y195.408 E0.04432
G1 X118.69 Y195.016 E0.02248
G1 X118.144 Y194.508 E0.02795
G1 X117.612 Y193.96 E0.02863
G1 X107.14 Y182.809 E0.57341
G1 X106.768 Y182.403 E0.02064
G1 X106.359 Y181.915 E0.02387
G1 X106.354 Y181.919 E0.00024
G1 X105.964 Y181.436 E0.02327
G1 X105.193 Y180.34 E0.05023
G1 X105.06 Y180.122 E0.00957
G1 X104.607 Y179.297 E0.03528
G1 X104.439 Y178.954 E0.01432
G1 X104.078 Y178.126 E0.03386
G1 X103.862 Y177.509 E0.0245
G1 X103.712 Y177.016 E0.01932
G1 X103.609 Y176.643 E0.0145
G1 X103.407 Y175.763 E0.03384
G1 X103.32 Y175.193 E0.02161
G1 X103.253 Y174.583 E0.023
G1 X103.232 Y174.326 E0.00967
G1 X103.2 Y173.682 E0.02417
G1 X103.18 Y172.594 E0.04079
G1 X103.178 Y172.406 E0.00705
G1 X103.184 Y125.289 E1.76614
G1 X103.193 Y124.634 E0.02455
G1 X103.219 Y124.034 E0.02251
G1 X103.272 Y123.356 E0.02549
G1 X103.289 Y123.189 E0.00629
G1 X103.421 Y122.295 E0.03387
G1 X103.545 Y121.734 E0.02154
G1 X103.685 Y121.19 E0.02106
G1 X103.73 Y121.027 E0.00634
G1 X104.008 Y120.168 E0.03384
G1 X104.253 Y119.572 E0.02415
G1 X104.547 Y118.923 E0.02671
G1 X104.579 Y118.856 E0.00278
G1 X105.004 Y118.059 E0.03386
G1 X105.334 Y117.538 E0.02312
G1 X105.704 Y116.997 E0.02457
G1 X105.785 Y116.884 E0.00521
G1 X106.343 Y116.175 E0.03382
G1 X106.754 Y115.725 E0.02284
G0 F1080 X106.762 Y115.716
G0 X107.228 Y115.242
G0 X107.316 Y115.156
G10
G1 F900 Z0.6
G0 F4114.3 X197.399 Y196.164 Z0.6
G1 F900 Z0.2
G11
G1 F1200 X197.495 Y196.095 E0.00443
G1 X197.607 Y196.095 E0.0042
G1 X197.703 Y196.164 E0.00443
G1 X197.738 Y196.273 E0.00429
G1 X197.703 Y196.382 E0.00429
G1 X197.607 Y196.451 E0.00443
G1 X197.495 Y196.451 E0.0042
G1 X197.399 Y196.382 E0.00443
G1 X197.364 Y196.273 E0.00429
G1 X197.376 Y196.236 E0.00146
G0 F1080 X197.399 Y196.164
G0 F4114.3 X197.059 Y195.917
G1 F1200 X197.363 Y195.695 E0.01411
G1 X197.739 Y195.695 E0.01409
G1 X198.043 Y195.917 E0.01411
G1 X198.159 Y196.273 E0.01403
G1 X198.043 Y196.629 E0.01403
G1 X197.739 Y196.851 E0.01411
G1 X197.363 Y196.851 E0.01409
G1 X197.059 Y196.629 E0.01411
G1 X196.943 Y196.273 E0.01403
G1 X196.982 Y196.154 E0.00469
G0 F1080 X197.059 Y195.917
G0 F4114.3 X196.718 Y195.67
G1 F1200 X197.234 Y195.295 E0.02391
G1 X197.868 Y195.295 E0.02376
G1 X198.384 Y195.67 E0.02391
G1 X198.58 Y196.273 E0.02377
G1 X198.384 Y196.876 E0.02377
G1 X197.868 Y197.251 E0.02391
G1 X197.234 Y197.251 E0.02376
G1 X196.718 Y196.876 E0.02391
