;FLAVOR:RepRap
;TIME:1653
;Filament used: 1.61819m
;Layer height: 0.2
;MINX:131.899
;MINY:131.899
;MINZ:0.2
;MAXX:178.101
;MAXY:178.101
;MAXZ:25
;Generated with Cura_SteamEngine 4.8.0-beta
T0
M190 S65
M104 S200
M109 S200
M82 ;absolute extrusion mode
;G28  ;Home XY
;M561 ; Clear any bed transform that might be in place
;M116 H0 S5
;M116 T0 S5
;M140 S65 ;Set target temperature for the heated bed.
;M190 ;wait until bed has heated
;M104 T0 S200 ;Set target temperature for the nozzle 1.
;M109 T0 ;Wait until nozzle 1 have reached target temperature.
;G32
;G1 X0 Y0 ; Move Probe to middle of bed
;G30 ; Do a single probe
;G29 ; Probe the bed with the ABL ; **** uncomment this line if you have an always on ABL *****
;G92 E0 ; Reset Extruder
;G1 Z5.0  ; Move Z Axis up little to prevent scratching of Heat Bed
;G1 X-145 Y-145 Z0.3 F9000.0 ; Move to start position
;G1 X-145 Y100.0 Z0.3 F1500.0 E15 ; Draw the first line
;G1 X-142 Y100.0 Z0.3 F6000.0 ; Move to side a little
;G1 X-142 Y-145 Z0.3 F1500.0 E30 ; Draw the second line
;G92 E0 ; Reset Extruder
;G1 Z5.0 F9000 ; Move Z Axis up little to prevent scratching of Heat Bed
; End of custom start GCode
M83 ;relative extrusion mode
G10
;LAYER_COUNT:125
;LAYER:0
M107
G1 F900 Z0.6
G0 F4114.3 X137.525 Y137.175 Z0.6
;TYPE:SKIRT
G1 F900 Z0.2
G11
G1 F1200 X138.098 Y136.64 E0.02939
G1 X138.544 Y136.256 E0.02206
G1 X139.112 Y135.796 E0.0274
G1 X139.626 Y135.412 E0.02405
G1 X140.175 Y135.031 E0.02505
G1 X140.339 Y134.922 E0.00738
G1 X140.804 Y134.63 E0.02058
G1 X141.361 Y134.303 E0.02421
G1 X141.525 Y134.211 E0.00705
G1 X141.971 Y133.975 E0.01891
G1 X142.63 Y133.651 E0.02753
G1 X143.198 Y133.399 E0.02329
G1 X143.841 Y133.138 E0.02601
G1 X144.493 Y132.902 E0.02599
G1 X145.173 Y132.684 E0.02677
G1 X145.776 Y132.517 E0.02345
G1 X146.435 Y132.356 E0.02543
G1 X146.591 Y132.321 E0.00599
G1 X147.131 Y132.215 E0.02063
G1 X147.79 Y132.106 E0.02504
G1 X148.464 Y132.02 E0.02547
G1 X149.176 Y131.956 E0.0268
G1 X149.28 Y131.949 E0.00391
G1 X149.801 Y131.927 E0.01955
G1 X151.379 Y131.9 E0.05916
G1 X158.623 Y131.899 E0.27154
G1 X160.144 Y131.925 E0.05702
G1 X160.948 Y131.965 E0.03017
G1 X161.6 Y132.025 E0.02454
G1 X162.247 Y132.11 E0.02446
G1 X162.933 Y132.225 E0.02607
G1 X163.779 Y132.403 E0.03241
G1 X164.272 Y132.529 E0.01907
G1 X164.959 Y132.724 E0.02677
G1 X165.582 Y132.928 E0.02457
G1 X166.29 Y133.187 E0.02826
G1 X166.849 Y133.419 E0.02269
G1 X167.475 Y133.7 E0.02572
G1 X167.619 Y133.768 E0.00597
G1 X168.122 Y134.022 E0.02112
G1 X168.757 Y134.37 E0.02714
G1 X169.283 Y134.684 E0.02296
G1 X169.908 Y135.087 E0.02788
G1 X170.408 Y135.438 E0.0229
G1 X170.976 Y135.864 E0.02661
G1 X171.087 Y135.951 E0.00529
G1 X171.486 Y136.28 E0.01938
G1 X172.003 Y136.732 E0.02574
G1 X172.121 Y136.839 E0.00597
G1 X172.522 Y137.222 E0.02079
G1 X172.991 Y137.698 E0.02505
G1 X173.131 Y137.846 E0.00764
G1 X173.487 Y138.241 E0.01993
G1 X173.88 Y138.706 E0.02282
G1 X174.029 Y138.889 E0.00885
G1 X174.34 Y139.291 E0.01905
G1 X174.734 Y139.832 E0.02509
G1 X175.105 Y140.384 E0.02493
G1 X175.477 Y140.981 E0.02637
G1 X175.807 Y141.561 E0.02501
G1 X176.112 Y142.141 E0.02456
G1 X176.202 Y142.321 E0.00754
G1 X176.433 Y142.815 E0.02044
G1 X176.692 Y143.413 E0.02443
G1 X176.938 Y144.045 E0.02542
G1 X177.17 Y144.708 E0.02633
G1 X177.37 Y145.362 E0.02564
G1 X177.542 Y146.003 E0.02488
G1 X177.69 Y146.648 E0.02481
G1 X177.828 Y147.365 E0.02737
G1 X177.924 Y148.001 E0.02411
G1 X178.006 Y148.71 E0.02675
G1 X178.058 Y149.389 E0.02553
G1 X178.087 Y150.001 E0.02297
G1 X178.101 Y150.721 E0.02699
G1 X178.099 Y159.153 E0.31607
G1 X178.091 Y159.745 E0.02219
G1 X178.059 Y160.567 E0.03084
G1 X177.998 Y161.38 E0.03056
G1 X177.915 Y162.066 E0.0259
G1 X177.818 Y162.695 E0.02386
G1 X177.783 Y162.894 E0.00757
G1 X177.681 Y163.4 E0.01935
G1 X177.507 Y164.14 E0.02849
G1 X177.349 Y164.71 E0.02217
G1 X177.126 Y165.426 E0.02811
G1 X176.908 Y166.036 E0.02428
G1 X176.667 Y166.648 E0.02465
G1 X176.394 Y167.273 E0.02557
G1 X176.095 Y167.896 E0.0259
G1 X176.018 Y168.048 E0.00639
G1 X175.77 Y168.509 E0.01962
G1 X175.395 Y169.156 E0.02803
G1 X175.075 Y169.661 E0.02241
G1 X174.679 Y170.246 E0.02648
G1 X174.584 Y170.38 E0.00616
G1 X174.279 Y170.789 E0.01912
G1 X173.844 Y171.337 E0.02623
G1 X173.407 Y171.848 E0.0252
G1 X172.936 Y172.36 E0.02608
G1 X172.475 Y172.825 E0.02454
G1 X171.902 Y173.36 E0.02939
G1 X171.456 Y173.744 E0.02206
G1 X170.888 Y174.204 E0.0274
G1 X170.374 Y174.588 E0.02405
G1 X169.825 Y174.969 E0.02505
G1 X169.661 Y175.078 E0.00738
G1 X169.196 Y175.37 E0.02058
G1 X168.652 Y175.689 E0.02364
G1 X168.483 Y175.784 E0.00727
G1 X168.04 Y176.02 E0.01881
G1 X167.362 Y176.353 E0.02831
G1 X166.802 Y176.601 E0.02296
G1 X166.159 Y176.862 E0.02601
G1 X165.515 Y177.095 E0.02567
G1 X164.82 Y177.318 E0.02736
G1 X164.224 Y177.483 E0.02318
G1 X163.565 Y177.644 E0.02543
G1 X163.409 Y177.679 E0.00599
G1 X162.869 Y177.785 E0.02063
G1 X162.21 Y177.894 E0.02504
G1 X161.536 Y177.98 E0.02547
G1 X160.824 Y178.044 E0.0268
G1 X160.72 Y178.051 E0.00391
G1 X160.199 Y178.073 E0.01955
G1 X158.621 Y178.1 E0.05916
G1 X151.377 Y178.101 E0.27154
G1 X149.857 Y178.075 E0.05698
G1 X149.054 Y178.036 E0.03014
G1 X148.403 Y177.975 E0.02451
G1 X147.737 Y177.888 E0.02518
G1 X147.043 Y177.77 E0.02639
G1 X146.31 Y177.617 E0.02807
G1 X145.73 Y177.472 E0.02241
G1 X144.99 Y177.26 E0.02885
G1 X144.428 Y177.075 E0.02218
G1 X143.71 Y176.813 E0.02865
G1 X143.16 Y176.585 E0.02232
G1 X142.498 Y176.288 E0.0272
G1 X142.355 Y176.22 E0.00594
G1 X141.878 Y175.978 E0.02005
G1 X141.249 Y175.634 E0.02687
G1 X140.71 Y175.311 E0.02355
G1 X140.078 Y174.903 E0.0282
G1 X139.595 Y174.564 E0.02212
G1 X139.014 Y174.128 E0.02723
G1 X138.902 Y174.04 E0.00534
G1 X138.515 Y173.721 E0.0188
G1 X137.993 Y173.265 E0.02598
G1 X137.874 Y173.157 E0.00602
G1 X137.477 Y172.777 E0.0206
G1 X137.011 Y172.304 E0.02489
G1 X136.87 Y172.155 E0.00769
G1 X136.505 Y171.749 E0.02046
G1 X136.101 Y171.271 E0.02346
G1 X135.966 Y171.105 E0.00802
G1 X135.649 Y170.695 E0.01943
G1 X135.262 Y170.162 E0.02469
G1 X134.883 Y169.598 E0.02547
G1 X134.518 Y169.01 E0.02594
G1 X134.193 Y168.439 E0.02463
G1 X133.868 Y167.819 E0.02624
G1 X133.57 Y167.191 E0.02606
G1 X133.285 Y166.531 E0.02695
G1 X133.065 Y165.962 E0.02287
G1 X132.824 Y165.273 E0.02736
G1 X132.632 Y164.645 E0.02462
G1 X132.445 Y163.946 E0.02712
G1 X132.31 Y163.352 E0.02283
G1 X132.164 Y162.589 E0.02912
G1 X132.075 Y161.99 E0.0227
G1 X131.989 Y161.23 E0.02867
G1 X131.94 Y160.583 E0.02432
G1 X131.912 Y159.981 E0.02259
G1 X131.899 Y159.281 E0.02624
G1 X131.901 Y150.847 E0.31614
G1 X131.909 Y150.255 E0.02219
G1 X131.919 Y149.915 E0.01275
G1 X131.942 Y149.411 E0.01891
G1 X131.977 Y148.892 E0.0195
G1 X132.026 Y148.392 E0.01883
G1 X132.141 Y147.556 E0.03163
G1 X132.319 Y146.6 E0.03645
G1 X132.493 Y145.86 E0.02849
G1 X132.655 Y145.274 E0.02279
G1 X132.874 Y144.576 E0.02742
G1 X133.092 Y143.962 E0.02442
G1 X133.355 Y143.299 E0.02674
G1 X133.607 Y142.726 E0.02346
G1 X133.906 Y142.101 E0.02597
G1 X133.982 Y141.951 E0.0063
G1 X134.23 Y141.491 E0.01959
G1 X134.605 Y140.844 E0.02803
G1 X134.928 Y140.334 E0.02263
G1 X135.337 Y139.731 E0.02731
G1 X135.423 Y139.61 E0.00556
G1 X135.723 Y139.209 E0.01877
G1 X136.172 Y138.643 E0.02708
G1 X136.593 Y138.152 E0.02424
G1 X136.966 Y137.747 E0.02064
G0 F1080 X137.064 Y137.64
G0 X137.525 Y137.175
G0 F4114.3 X137.801 Y137.465
G1 F1200 X138.363 Y136.939 E0.02885
G1 X138.797 Y136.566 E0.02145
G1 X139.357 Y136.113 E0.027
G1 X139.856 Y135.739 E0.02338
G1 X140.396 Y135.364 E0.02464
G1 X140.56 Y135.255 E0.00738
G1 X141.007 Y134.974 E0.01979
G1 X141.557 Y134.652 E0.02389
G1 X142.149 Y134.333 E0.02521
G1 X142.798 Y134.014 E0.02711
G1 X143.351 Y133.768 E0.02269
G1 X143.983 Y133.512 E0.02556
G1 X144.618 Y133.282 E0.02532
G1 X145.286 Y133.068 E0.02629
G1 X145.872 Y132.905 E0.0228
G1 X146.523 Y132.746 E0.02512
G1 X146.679 Y132.711 E0.00599
G1 X147.198 Y132.609 E0.01983
G1 X147.847 Y132.502 E0.02466
G1 X148.502 Y132.418 E0.02475
G1 X149.203 Y132.355 E0.02638
G1 X149.307 Y132.348 E0.00391
G1 X149.808 Y132.327 E0.0188
G1 X151.379 Y132.3 E0.0589
G1 X158.623 Y132.299 E0.27154
G1 X160.136 Y132.325 E0.05672
G1 X160.923 Y132.364 E0.02954
G1 X161.551 Y132.422 E0.02364
G1 X162.187 Y132.505 E0.02404
G1 X162.855 Y132.617 E0.02539
G1 X163.684 Y132.791 E0.03175
G1 X164.564 Y133.025 E0.03413
G1 X165.447 Y133.304 E0.03471
G1 X166.142 Y133.559 E0.02775
G1 X166.687 Y133.784 E0.0221
G1 X167.304 Y134.062 E0.02537
G1 X167.448 Y134.13 E0.00597
G1 X167.932 Y134.374 E0.02032
G1 X168.557 Y134.716 E0.02671
G1 X169.069 Y135.022 E0.02236
G1 X169.683 Y135.418 E0.02739
G1 X170.17 Y135.759 E0.02228
G1 X170.729 Y136.179 E0.02621
G1 X171.224 Y136.582 E0.02393
G1 X171.735 Y137.028 E0.02542
G1 X171.853 Y137.135 E0.00597
G1 X172.238 Y137.503 E0.01996
G1 X172.7 Y137.973 E0.0247
G1 X172.84 Y138.121 E0.00764
G1 X173.183 Y138.501 E0.01919
G1 X173.57 Y138.959 E0.02248
G1 X174.018 Y139.529 E0.02718
G1 X174.405 Y140.06 E0.02463
G1 X174.767 Y140.597 E0.02428
G1 X175.132 Y141.185 E0.02594
G1 X175.454 Y141.749 E0.02434
G1 X175.754 Y142.319 E0.02414
G1 X175.844 Y142.499 E0.00754
G1 X176.067 Y142.975 E0.0197
G1 X176.322 Y143.565 E0.02409
G1 X176.561 Y144.179 E0.0247
G1 X176.789 Y144.831 E0.02589
G1 X176.984 Y145.467 E0.02494
G1 X177.154 Y146.099 E0.02453
G1 X177.298 Y146.726 E0.02411
G1 X177.434 Y147.431 E0.02691
G1 X177.527 Y148.049 E0.02343
G1 X177.607 Y148.747 E0.02634
G1 X177.659 Y149.408 E0.02485
G1 X177.688 Y150.02 E0.02297
G1 X177.701 Y150.724 E0.02639
G1 X177.699 Y159.148 E0.31577
G1 X177.691 Y159.74 E0.02219
G1 X177.659 Y160.549 E0.03035
G1 X177.6 Y161.338 E0.02966
G1 X177.52 Y162.007 E0.02526
G1 X177.424 Y162.626 E0.02348
G1 X177.291 Y163.312 E0.02619
G1 X177.12 Y164.038 E0.02796
G1 X176.967 Y164.594 E0.02162
G1 X176.747 Y165.297 E0.02761
G1 X176.536 Y165.891 E0.02363
G1 X176.298 Y166.493 E0.02426
G1 X176.032 Y167.102 E0.02491
G1 X175.738 Y167.715 E0.02548
G1 X175.661 Y167.867 E0.00639
G1 X175.423 Y168.311 E0.01888
G1 X175.054 Y168.947 E0.02756
G1 X174.743 Y169.439 E0.02182
G1 X174.353 Y170.014 E0.02604
G1 X173.964 Y170.542 E0.02458
G1 X173.536 Y171.082 E0.02583
G1 X173.111 Y171.579 E0.02451
G1 X172.647 Y172.083 E0.02568
G1 X172.199 Y172.535 E0.02386
G1 X171.637 Y173.061 E0.02885
G1 X171.203 Y173.434 E0.02145
G1 X170.643 Y173.887 E0.027
G1 X170.144 Y174.261 E0.02338
G1 X169.604 Y174.636 E0.02464
G1 X169.44 Y174.745 E0.00738
G1 X168.992 Y175.026 E0.01982
G1 X168.456 Y175.34 E0.02329
G1 X167.861 Y175.662 E0.02536
G1 X167.195 Y175.99 E0.02783
G1 X166.649 Y176.232 E0.02239
G1 X166.017 Y176.488 E0.02556
G1 X165.39 Y176.715 E0.025
G1 X164.707 Y176.935 E0.0269
G1 X164.128 Y177.095 E0.02252
G1 X163.477 Y177.254 E0.02512
G1 X163.321 Y177.289 E0.00599
G1 X162.802 Y177.391 E0.01983
G1 X162.153 Y177.498 E0.02466
G1 X161.498 Y177.582 E0.02475
G1 X160.797 Y177.645 E0.02638
G1 X160.693 Y177.652 E0.00391
G1 X160.192 Y177.673 E0.0188
G1 X158.621 Y177.7 E0.0589
G1 X151.377 Y177.701 E0.27154
G1 X149.865 Y177.675 E0.05668
G1 X149.078 Y177.636 E0.02954
G1 X148.453 Y177.578 E0.02353
G1 X147.797 Y177.493 E0.0248
G1 X147.122 Y177.378 E0.02567
G1 X146.401 Y177.228 E0.0276
G1 X145.837 Y177.087 E0.02179
G1 X145.11 Y176.879 E0.02834
G1 X144.562 Y176.699 E0.02162
G1 X143.858 Y176.441 E0.02811
G1 X143.322 Y176.22 E0.02173
G1 X142.67 Y175.927 E0.02679
G1 X142.527 Y175.859 E0.00594
G1 X142.068 Y175.626 E0.0193
G1 X141.449 Y175.287 E0.02645
G1 X140.924 Y174.974 E0.02291
G1 X140.303 Y174.573 E0.02771
G1 X139.833 Y174.243 E0.02153
G1 X139.261 Y173.813 E0.02682
G1 X138.777 Y173.418 E0.02342
G1 X138.262 Y172.969 E0.02561
G1 X138.143 Y172.861 E0.00602
G1 X137.761 Y172.495 E0.01983
G1 X137.301 Y172.029 E0.02454
G1 X137.16 Y171.88 E0.00769
G1 X136.809 Y171.489 E0.0197
G1 X136.412 Y171.019 E0.02306
G1 X135.972 Y170.458 E0.02672
G1 X135.591 Y169.934 E0.02428
G1 X135.222 Y169.385 E0.0248
G1 X134.862 Y168.806 E0.02556
G1 X134.546 Y168.251 E0.02394
G1 X134.226 Y167.641 E0.02582
G1 X133.936 Y167.03 E0.02535
G1 X133.656 Y166.381 E0.02649
G1 X133.441 Y165.828 E0.02224
G1 X133.205 Y165.15 E0.02691
G1 X133.017 Y164.539 E0.02396
G1 X132.834 Y163.852 E0.02665
G1 X132.702 Y163.273 E0.02226
G1 X132.559 Y162.524 E0.02858
G1 X132.473 Y161.942 E0.02205
G1 X132.387 Y161.194 E0.02822
G1 X132.34 Y160.565 E0.02364
G1 X132.312 Y159.963 E0.02259
G1 X132.299 Y159.278 E0.02568
G1 X132.301 Y150.852 E0.31584
G1 X132.309 Y150.26 E0.02219
G1 X132.319 Y149.933 E0.01226
G1 X132.342 Y149.429 E0.01891
G1 X132.376 Y148.924 E0.01897
G1 X132.48 Y147.997 E0.03497
G1 X132.586 Y147.315 E0.02587
G1 X132.709 Y146.688 E0.02395
G1 X132.88 Y145.962 E0.02796
G1 X133.038 Y145.391 E0.02221
G1 X133.253 Y144.704 E0.02698
G1 X133.465 Y144.107 E0.02375
G1 X133.723 Y143.454 E0.02632
G1 X133.969 Y142.897 E0.02282
G1 X134.263 Y142.282 E0.02555
G1 X134.339 Y142.132 E0.0063
G1 X134.577 Y141.689 E0.01885
G1 X134.946 Y141.053 E0.02756
G1 X135.26 Y140.557 E0.022
G1 X135.663 Y139.963 E0.02691
G1 X136.038 Y139.456 E0.02364
G1 X136.48 Y138.898 E0.02668
G1 X136.889 Y138.421 E0.02355
G1 X137.242 Y138.037 E0.01955
G0 F1080 X137.353 Y137.917
G0 X137.801 Y137.465
G10
G1 F900 Z0.6
;MESH:ks_wizard.stl
G0 F4114.3 X144.609 Y162.49 Z0.6
;TYPE:WALL-INNER
G1 F900 Z0.2
G11
G1 F1200 X144.399 Y162.03 E0.01895
G1 X144.094 Y161.107 E0.03644
G1 X143.932 Y160.173 E0.03553
G1 X143.899 Y159.517 E0.02462
G1 X143.9 Y150.317 E0.34485
G1 X143.993 Y149.369 E0.03571
G1 X144.229 Y148.43 E0.03629
G1 X144.408 Y147.949 E0.01924
G1 X144.6 Y147.529 E0.01731
G1 X144.842 Y147.088 E0.01886
G1 X145.097 Y146.697 E0.0175
G1 X145.402 Y146.298 E0.01883
G1 X145.705 Y145.955 E0.01716
G1 X146.079 Y145.589 E0.01962
G1 X146.822 Y145.011 E0.03529
G1 X147.663 Y144.535 E0.03622
G1 X148.126 Y144.337 E0.01888
G1 X149.036 Y144.061 E0.03564
G1 X149.496 Y143.975 E0.01754
G1 X150.005 Y143.918 E0.0192
G1 X150.531 Y143.9 E0.01973
G1 X159.467 Y143.899 E0.33496
G1 X159.995 Y143.917 E0.0198
G1 X160.501 Y143.973 E0.01908
G1 X161.435 Y144.185 E0.0359
G1 X161.871 Y144.335 E0.01728
G1 X162.342 Y144.536 E0.0192
G1 X162.748 Y144.747 E0.01715
G1 X163.179 Y145.012 E0.01897
G1 X163.547 Y145.279 E0.01704
G1 X163.951 Y145.617 E0.01974
G1 X164.615 Y146.317 E0.03617
G1 X164.892 Y146.68 E0.01712
G1 X165.168 Y147.105 E0.019
G1 X165.386 Y147.5 E0.01691
G1 X165.599 Y147.965 E0.01917
G1 X165.904 Y148.887 E0.0364
G1 X166.067 Y149.816 E0.03535
G1 X166.098 Y150.317 E0.01882
G1 X166.101 Y150.483 E0.00622
G1 X166.1 Y159.686 E0.34497
G1 X166.007 Y160.629 E0.03552
G1 X165.772 Y161.57 E0.03636
G1 X165.397 Y162.478 E0.03682
G1 X164.91 Y163.294 E0.03562
G1 X164.623 Y163.672 E0.01779
G1 X164.288 Y164.052 E0.01899
G1 X163.921 Y164.411 E0.01924
G1 X163.18 Y164.987 E0.03518
G1 X162.337 Y165.465 E0.03633
G1 X161.875 Y165.662 E0.01883
G1 X160.964 Y165.939 E0.03569
G1 X160.504 Y166.025 E0.01754
G1 X159.995 Y166.082 E0.0192
G1 X159.469 Y166.1 E0.01973
G1 X150.533 Y166.101 E0.33496
G1 X150.005 Y166.083 E0.0198
G1 X149.499 Y166.027 E0.01908
G1 X149.051 Y165.942 E0.01709
G1 X148.56 Y165.813 E0.01903
G1 X148.127 Y165.664 E0.01716
G1 X147.664 Y165.466 E0.01888
G1 X146.823 Y164.99 E0.03622
G1 X146.081 Y164.413 E0.03523
G1 X145.706 Y164.046 E0.01967
G1 X145.097 Y163.303 E0.03601
G1 X145.02 Y163.176 E0.00557
G0 F1080 X144.609 Y162.49
G0 F4114.3 X144.252 Y162.671
G1 F1200 X144.03 Y162.185 E0.02003
G1 X143.853 Y161.709 E0.01904
G1 X143.708 Y161.211 E0.01944
G1 X143.704 Y161.19 E0.0008
G1 X143.6 Y160.698 E0.01885
G1 X143.537 Y160.227 E0.01781
G1 X143.534 Y160.211 E0.00061
G1 X143.534 Y160.198 E0.00049
G1 X143.502 Y159.685 E0.01927
G1 X143.499 Y159.517 E0.0063
G1 X143.5 Y150.31 E0.34512
G1 X143.532 Y149.791 E0.01949
G1 X143.599 Y149.3 E0.01858
G1 X143.707 Y148.789 E0.01958
G1 X143.85 Y148.3 E0.0191
G1 X144.037 Y147.799 E0.02005
G1 X144.245 Y147.343 E0.01879
G1 X144.496 Y146.886 E0.01954
G1 X144.77 Y146.466 E0.0188
G1 X145.093 Y146.043 E0.01995
G1 X145.414 Y145.679 E0.01819
G1 X145.804 Y145.298 E0.02044
G1 X146.184 Y144.979 E0.0186
G1 X146.603 Y144.676 E0.01938
G1 X147.043 Y144.406 E0.01935
G1 X147.489 Y144.174 E0.01884
G1 X147.982 Y143.964 E0.02009
G1 X148.456 Y143.8 E0.0188
G1 X148.948 Y143.671 E0.01907
