;FLAVOR:RepRap
;TIME:321
;Filament used: 0.117921m
;Layer height: 0.2
;MINX:137.411
;MINY:138.63
;MINZ:0.2
;MAXX:167.589
;MAXY:165.74
;MAXZ:12.8
;Generated with Cura_SteamEngine 4.8.0-beta
T0
M190 S65
M104 S200
M109 S200
M82 ;absolute extrusion mode
;G28  ;Home XY
;M561 ; Clear any bed transform that might be in place
;M116 H0 S5
;M116 T0 S5
;M140 S65 ;Set target temperature for the heated bed.
;M190 ;wait until bed has heated
;M104 T0 S200 ;Set target temperature for the nozzle 1.
;M109 T0 ;Wait until nozzle 1 have reached target temperature.
;G32
;G1 X0 Y0 ; Move Probe to middle of bed
;G30 ; Do a single probe
;G29 ; Probe the bed with the ABL ; **** uncomment this line if you have an always on ABL *****
;G92 E0 ; Reset Extruder
;G1 Z5.0  ; Move Z Axis up little to prevent scratching of Heat Bed
;G1 X-145 Y-145 Z0.3 F9000.0 ; Move to start position
;G1 X-145 Y100.0 Z0.3 F1500.0 E15 ; Draw the first line
;G1 X-142 Y100.0 Z0.3 F6000.0 ; Move to side a little
;G1 X-142 Y-145 Z0.3 F1500.0 E30 ; Draw the second line
;G92 E0 ; Reset Extruder
;G1 Z5.0 F9000 ; Move Z Axis up little to prevent scratching of Heat Bed
; End of custom start GCode
M83 ;relative extrusion mode
G10
;LAYER_COUNT:64
;LAYER:0
M107
G1 F900 Z0.6
G0 F4114.3 X140.621 Y141.882 Z0.6
;TYPE:SKIRT
G1 F900 Z0.2
G11
G1 F1200 X141.31 Y141.246 E0.03515
G1 X142.051 Y140.671 E0.03516
G1 X142.838 Y140.161 E0.03515
G1 X143.666 Y139.72 E0.03516
G1 X144.528 Y139.351 E0.03515
G1 X145.419 Y139.057 E0.03517
G1 X146.331 Y138.839 E0.03515
G1 X147.258 Y138.701 E0.03513
G1 X148.112 Y138.643 E0.03209
G1 X148.741 Y138.63 E0.02358
G1 X155.859 Y138.63 E0.26681
G1 X156.718 Y138.641 E0.0322
G1 X157.654 Y138.694 E0.03514
G1 X158.582 Y138.827 E0.03514
G1 X159.496 Y139.039 E0.03517
G1 X160.389 Y139.327 E0.03517
G1 X161.253 Y139.691 E0.03514
G1 X162.084 Y140.127 E0.03518
G1 X162.874 Y140.632 E0.03515
G1 X163.618 Y141.202 E0.03513
G1 X164.311 Y141.834 E0.03516
G1 X164.948 Y142.523 E0.03517
G1 X165.524 Y143.263 E0.03515
G1 X166.035 Y144.05 E0.03517
G1 X166.476 Y144.877 E0.03513
G1 X166.846 Y145.739 E0.03516
G1 X167.141 Y146.629 E0.03515
G1 X167.381 Y147.656 E0.03953
G1 X167.403 Y147.776 E0.00457
G1 X167.532 Y148.705 E0.03516
G1 X167.582 Y149.616 E0.0342
G1 X167.589 Y150.219 E0.0226
G1 X167.588 Y154.11 E0.14585
G1 X167.579 Y154.837 E0.02725
G1 X167.528 Y155.774 E0.03517
G1 X167.396 Y156.702 E0.03514
G1 X167.187 Y157.616 E0.03514
G1 X166.9 Y158.509 E0.03516
G1 X166.538 Y159.375 E0.03518
G1 X166.104 Y160.206 E0.03514
G1 X165.6 Y160.997 E0.03516
G1 X165.031 Y161.742 E0.03514
G1 X164.4 Y162.437 E0.03519
G1 X163.713 Y163.075 E0.03514
G1 X162.974 Y163.652 E0.03514
G1 X162.188 Y164.164 E0.03516
G1 X161.362 Y164.607 E0.03513
G1 X160.5 Y164.979 E0.03519
G1 X159.611 Y165.275 E0.03512
G1 X158.699 Y165.495 E0.03517
G1 X157.86 Y165.626 E0.03183
G1 X157.604 Y165.656 E0.00966
G1 X156.634 Y165.727 E0.03646
G1 X156.005 Y165.74 E0.02358
G1 X149.214 Y165.739 E0.25456
G1 X148.517 Y165.729 E0.02613
G1 X147.46 Y165.663 E0.0397
G1 X147.217 Y165.636 E0.00916
G1 X146.29 Y165.493 E0.03516
G1 X145.379 Y165.271 E0.03515
G1 X144.49 Y164.972 E0.03516
G1 X143.63 Y164.599 E0.03514
G1 X142.804 Y164.154 E0.03517
G1 X142.019 Y163.64 E0.03517
G1 X141.281 Y163.062 E0.03514
G1 X140.595 Y162.422 E0.03517
G1 X140.068 Y161.848 E0.02921
G1 X139.489 Y161.11 E0.03516
G1 X138.974 Y160.326 E0.03516
G1 X138.528 Y159.501 E0.03515
G1 X138.154 Y158.641 E0.03515
G1 X137.855 Y157.752 E0.03516
G1 X137.633 Y156.841 E0.03515
G1 X137.488 Y155.914 E0.03517
G1 X137.424 Y154.997 E0.03446
G1 X137.411 Y154.368 E0.02358
G1 X137.412 Y150.139 E0.15852
G1 X137.422 Y149.474 E0.02493
G1 X137.476 Y148.537 E0.03518
G1 X137.61 Y147.609 E0.03515
G1 X137.822 Y146.695 E0.03517
G1 X138.111 Y145.803 E0.03515
G1 X138.476 Y144.939 E0.03516
G1 X138.912 Y144.109 E0.03514
G1 X139.418 Y143.319 E0.03517
G1 X139.989 Y142.575 E0.03515
G1 X140.082 Y142.473 E0.00517
G0 F1080 X140.621 Y141.882
G0 F4114.3 X141.013 Y142.057
G1 F1200 X141.699 Y141.443 E0.03451
G1 X142.435 Y140.891 E0.03449
G1 X143.217 Y140.404 E0.03453
G1 X144.038 Y139.988 E0.0345
G1 X144.892 Y139.644 E0.03451
G1 X145.772 Y139.375 E0.03449
G1 X146.673 Y139.184 E0.03452
G1 X147.587 Y139.072 E0.03452
G1 X148.123 Y139.043 E0.02012
G1 X148.741 Y139.03 E0.02317
G1 X155.859 Y139.03 E0.26681
G1 X156.712 Y139.041 E0.03198
G1 X157.631 Y139.094 E0.03451
G1 X158.542 Y139.227 E0.03451
G1 X159.438 Y139.438 E0.0345
G1 X160.313 Y139.726 E0.03453
G1 X161.159 Y140.089 E0.03451
G1 X161.97 Y140.524 E0.0345
G1 X162.741 Y141.028 E0.03453
G1 X163.465 Y141.596 E0.03449
G1 X164.137 Y142.226 E0.03453
G1 X164.751 Y142.911 E0.03448
G1 X165.304 Y143.647 E0.03451
G1 X165.791 Y144.429 E0.03453
G1 X166.209 Y145.249 E0.0345
G1 X166.553 Y146.103 E0.03451
G1 X166.823 Y146.983 E0.0345
G1 X166.987 Y147.729 E0.02863
G1 X167.009 Y147.849 E0.00457
G1 X167.136 Y148.76 E0.03448
G1 X167.182 Y149.621 E0.03232
G1 X167.189 Y150.219 E0.02242
G1 X167.188 Y154.105 E0.14566
G1 X167.179 Y154.832 E0.02725
G1 X167.128 Y155.751 E0.0345
G1 X166.997 Y156.663 E0.03454
G1 X166.787 Y157.559 E0.0345
G1 X166.501 Y158.434 E0.03451
G1 X166.14 Y159.281 E0.03451
G1 X165.706 Y160.093 E0.03451
G1 X165.204 Y160.865 E0.03452
G1 X164.636 Y161.59 E0.03452
G1 X164.008 Y162.263 E0.0345
G1 X163.324 Y162.879 E0.0345
G1 X162.589 Y163.433 E0.0345
G1 X161.809 Y163.922 E0.03451
G1 X160.989 Y164.341 E0.03452
G1 X160.136 Y164.687 E0.0345
G1 X159.256 Y164.958 E0.03451
G1 X158.356 Y165.151 E0.0345
G1 X157.814 Y165.229 E0.02053
G1 X157.558 Y165.259 E0.00966
G1 X156.623 Y165.327 E0.03514
G1 X156.005 Y165.34 E0.02317
G1 X149.22 Y165.339 E0.25433
G1 X148.523 Y165.329 E0.02613
G1 X147.504 Y165.265 E0.03827
G1 X147.261 Y165.238 E0.00916
G1 X146.352 Y165.097 E0.03448
G1 X145.458 Y164.877 E0.03451
G1 X144.586 Y164.581 E0.03452
G1 X143.743 Y164.21 E0.03452
G1 X142.936 Y163.767 E0.03451
G1 X142.17 Y163.256 E0.03452
G1 X141.452 Y162.68 E0.0345
G1 X140.786 Y162.045 E0.03449
G1 X140.372 Y161.587 E0.02314
G1 X139.804 Y160.863 E0.03449
G1 X139.3 Y160.092 E0.03453
G1 X138.866 Y159.28 E0.03451
G1 X138.504 Y158.434 E0.03449
G1 X138.216 Y157.559 E0.03453
G1 X138.005 Y156.663 E0.0345
G1 X137.873 Y155.752 E0.0345
G1 X137.824 Y154.986 E0.02877
G1 X137.811 Y154.368 E0.02317
G1 X137.812 Y150.145 E0.1583
G1 X137.822 Y149.48 E0.02493
G1 X137.876 Y148.561 E0.03451
G1 X138.009 Y147.65 E0.03451
G1 X138.221 Y146.754 E0.03451
G1 X138.51 Y145.879 E0.03454
G1 X138.874 Y145.034 E0.03449
G1 X139.309 Y144.223 E0.0345
G1 X139.814 Y143.452 E0.03455
G1 X140.383 Y142.729 E0.03449
G1 X140.466 Y142.64 E0.00456
G0 F1080 X141.013 Y142.057
G0 F4114.3 X141.404 Y142.236
G1 F1200 X142.086 Y141.644 E0.03385
G1 X142.818 Y141.115 E0.03385
G1 X143.594 Y140.653 E0.03385
G1 X144.408 Y140.262 E0.03385
G1 X145.253 Y139.943 E0.03386
G1 X146.123 Y139.701 E0.03385
G1 X147.011 Y139.537 E0.03385
G1 X148.134 Y139.443 E0.04224
G1 X148.741 Y139.43 E0.02276
G1 X155.859 Y139.43 E0.26681
G1 X156.706 Y139.441 E0.03175
G1 X157.608 Y139.494 E0.03387
G1 X158.501 Y139.626 E0.03384
G1 X159.379 Y139.837 E0.03385
G1 X160.235 Y140.125 E0.03385
G1 X161.063 Y140.487 E0.03387
G1 X161.855 Y140.921 E0.03385
G1 X162.605 Y141.424 E0.03385
G1 X163.308 Y141.99 E0.03383
G1 X163.958 Y142.617 E0.03385
G1 X164.55 Y143.299 E0.03385
G1 X165.08 Y144.031 E0.03388
G1 X165.543 Y144.806 E0.03384
G1 X165.935 Y145.62 E0.03387
G1 X166.254 Y146.464 E0.03382
G1 X166.497 Y147.334 E0.03386
G1 X166.616 Y147.921 E0.02245
G1 X166.739 Y148.815 E0.03383
G1 X166.782 Y149.627 E0.03048
G1 X166.789 Y150.219 E0.02219
G1 X166.788 Y154.1 E0.14548
G1 X166.779 Y154.827 E0.02725
G1 X166.728 Y155.729 E0.03386
G1 X166.597 Y156.623 E0.03387
G1 X166.388 Y157.501 E0.03383
G1 X166.102 Y158.358 E0.03387
G1 X165.741 Y159.186 E0.03386
G1 X165.309 Y159.978 E0.03382
G1 X164.808 Y160.73 E0.03387
G1 X164.242 Y161.434 E0.03386
G1 X163.617 Y162.085 E0.03383
G1 X162.936 Y162.679 E0.03387
G1 X162.205 Y163.21 E0.03387
G1 X161.431 Y163.674 E0.03383
G1 X160.618 Y164.068 E0.03386
G1 X159.774 Y164.388 E0.03383
G1 X158.904 Y164.633 E0.03388
G1 X157.767 Y164.832 E0.04327
G1 X157.511 Y164.862 E0.00966
G1 X156.612 Y164.927 E0.03379
G1 X156.005 Y164.94 E0.02276
G1 X149.226 Y164.939 E0.25411
G1 X148.529 Y164.929 E0.02613
G1 X147.549 Y164.868 E0.03681
G1 X147.306 Y164.841 E0.00916
G1 X146.413 Y164.701 E0.03388
G1 X145.537 Y164.483 E0.03384
G1 X144.683 Y164.189 E0.03386
G1 X143.859 Y163.82 E0.03384
G1 X143.07 Y163.38 E0.03386
G1 X142.324 Y162.872 E0.03383
G1 X141.625 Y162.299 E0.03388
G1 X140.676 Y161.327 E0.05092
G1 X140.119 Y160.616 E0.03386
G1 X139.627 Y159.859 E0.03384
G1 X139.204 Y159.061 E0.03385
G1 X138.854 Y158.228 E0.03387
G1 X138.578 Y157.368 E0.03386
G1 X138.38 Y156.487 E0.03385
G1 X138.26 Y155.592 E0.03385
G1 X138.224 Y154.975 E0.02317
G1 X138.211 Y154.368 E0.02276
G1 X138.212 Y150.151 E0.15807
G1 X138.222 Y149.486 E0.02493
G1 X138.276 Y148.584 E0.03387
G1 X138.409 Y147.691 E0.03384
G1 X138.62 Y146.813 E0.03385
G1 X138.909 Y145.957 E0.03387
G1 X139.272 Y145.13 E0.03385
G1 X139.706 Y144.339 E0.03382
G1 X140.209 Y143.588 E0.03388
G1 X140.777 Y142.886 E0.03385
G1 X140.849 Y142.811 E0.0039
G0 F1080 X141.404 Y142.236
G10
G1 F900 Z0.6
;MESH:CuraTemp_302654.stl
G0 F4114.3 X149.811 Y151.03 Z0.6
;TYPE:WALL-INNER
G1 F900 Z0.2
G11
G1 F1200 X155.189 Y151.03 E0.20159
G1 X155.189 Y151.074 E0.00165
G1 X149.811 Y151.075 E0.02248
G1 X149.811 Y151.03 E0.00169
G0 F4114.3 X149.411 Y151.276
G1 F1200 X149.411 Y150.63 E0.02421
G1 X155.589 Y150.63 E0.23158
G1 X155.589 Y151.474 E0.03164
G1 X149.61 Y151.475 E0.22412
G1 X149.411 Y151.475 E0.00746
G1 X149.411 Y151.276 E0.00483
G0 F4114.3 X149.011 Y151.676
G1 F1200 X149.011 Y150.23 E0.0542
G1 X155.989 Y150.23 E0.26156
G1 X155.989 Y151.874 E0.06162
G1 X153.818 Y151.875 E0.08138
G1 X153.817 Y154.14 E0.0849
G1 X153.774 Y154.14 E0.00161
G1 X153.774 Y151.874 E0.00928
G1 X151.278 Y151.875 E0.09356
G1 X151.277 Y154.14 E0.0849
G1 X151.234 Y154.14 E0.00161
G1 X151.234 Y152.073 E0.07748
G1 X151.234 Y151.874 E0.00746
G1 X151.035 Y151.874 E0.00483
G1 X149.21 Y151.875 E0.06841
G1 X149.011 Y151.875 E0.00746
G1 X149.011 Y151.676 E0.00483
G0 F4114.3 X149.138 Y152.275
;TYPE:WALL-OUTER
G1 F1200 X149.137 Y153.771 E0.05608
G1 X149.137 Y153.971 E0.0075
G1 X149.337 Y153.971 E0.00485
G1 X150.834 Y153.971 E0.05611
G1 X150.834 Y152.474 E0.05611
G1 X150.834 Y152.274 E0.0075
G1 X150.634 Y152.274 E0.00485
G1 X149.138 Y152.275 E0.05608
G0 F4114.3 X149.138 Y152.475
G0 X149.038 Y152.474
G0 X149.109 Y153.999
G0 X151.877 Y154.071
G0 X151.877 Y153.971
G1 F1200 X153.374 Y153.971 E0.05611
G1 X153.374 Y152.474 E0.05611
G1 X153.374 Y152.274 E0.0075
G1 X153.174 Y152.274 E0.00485
G1 X151.678 Y152.275 E0.05608
G1 X151.677 Y153.771 E0.05608
G1 X151.677 Y153.971 E0.0075
G1 X151.877 Y153.971 E0.00485
G0 F4114.3 X152.077 Y153.971
G0 X152.077 Y154.071
G0 X153.602 Y153.999
G0 X153.99 Y152.047
G0 X155.942 Y152.046
G0 X155.914 Y152.474
G1 F1200 X155.914 Y152.274 E0.0075
G1 X155.714 Y152.274 E0.00485
G1 X154.218 Y152.275 E0.05608
G1 X154.217 Y153.771 E0.05608
G1 X154.217 Y153.971 E0.0075
G1 X154.417 Y153.971 E0.00485
G1 X155.914 Y153.971 E0.05611
G1 X155.914 Y152.584 E0.05199
G0 F1080 X155.914 Y152.474
G0 F4114.3 X155.914 Y152.274
G0 X156.014 Y152.274
G0 X148.881 Y150.1
G0 X148.611 Y149.83
G1 F1200 X156.389 Y149.83 E0.29155
G1 X156.389 Y154.51 E0.17543
G1 X156.135 Y154.51 E0.00952
G1 X156.135 Y154.54
G1 X148.865 Y154.54 E0.27251
G1 X148.865 Y154.51 E0.00112
G1 X148.611 Y154.51 E0.00932
G1 X148.611 Y149.83 E0.17543
G0 F4114.3 X148.811 Y149.83
G0 X149.051 Y150.27
G0 X149.211 Y150.43
G10
;MESH:NONMESH
G0 F900 X149.211 Y150.43 Z0.4
G0 F4114.3 X149.811 Y151.03
;TIME_ELAPSED:25.084399
;LAYER:1
M106 S255
;TYPE:WALL-INNER
;MESH:CuraTemp_302654.stl
G11
G1 F1268.4 X155.189 Y151.03 E0.1753
G1 X155.189 Y151.174 E0.00469
G1 X149.811 Y151.175 E0.06348
G1 X149.811 Y151.03 E0.00473
G0 F7200 X149.411 Y151.376
G1 F1268.4 X149.411 Y150.63 E0.02432
G1 X155.589 Y150.63 E0.20137
G1 X155.589 Y151.574 E0.03077
G1 X149.61 Y151.575 E0.19489
G1 X149.411 Y151.575 E0.00649
G1 X149.411 Y151.376 E0.0042
G0 F7200 X149.011 Y151.776
G1 F1268.4 X149.011 Y150.23 E0.05039
G1 X155.989 Y150.23 E0.22745
G1 X155.989 Y151.974 E0.05685
G1 X153.918 Y151.975 E0.0675
G1 X153.917 Y154.201 E0.07256
G1 X153.674 Y154.201 E0.00792
G1 X153.674 Y151.974 E0.04431
G1 X151.378 Y151.975 E0.07484
G1 X151.377 Y154.201 E0.07256
G1 X151.134 Y154.201 E0.00792
G1 X151.134 Y152.173 E0.0661
G1 X151.134 Y151.974 E0.00649
G1 X150.935 Y151.974 E0.0042
G1 X149.21 Y151.975 E0.05623
G1 X149.011 Y151.975 E0.00649
G1 X149.011 Y151.776 E0.0042
G0 F7200 X149.238 Y152.375
;TYPE:WALL-OUTER
G1 F1087.2 X149.237 Y153.671 E0.04224
G1 X149.237 Y153.871 E0.00652
G1 X149.437 Y153.871 E0.00422
G1 X150.734 Y153.871 E0.04228
G1 X150.734 Y152.574 E0.04228
G1 X150.734 Y152.374 E0.00652
G1 X150.534 Y152.374 E0.00422
G1 X149.238 Y152.375 E0.04224
G0 F7200 X149.238 Y152.575
G0 X149.138 Y152.574
G0 X149.209 Y153.899
G0 X151.977 Y153.971
G0 X151.977 Y153.871
G1 F1087.2 X153.274 Y153.871 E0.04228
G1 X153.274 Y152.574 E0.04228
G1 X153.274 Y152.374 E0.00652
G1 X153.074 Y152.374 E0.00422
G1 X151.778 Y152.375 E0.04224
G1 X151.777 Y153.671 E0.04224
G1 X151.777 Y153.871 E0.00652
G1 X151.977 Y153.871 E0.00422
G0 F7200 X152.177 Y153.871
G0 X152.177 Y153.971
G0 X153.502 Y153.899
G0 X154.09 Y152.147
G0 X155.842 Y152.146
G0 X155.814 Y152.574
G1 F1087.2 X155.814 Y152.374 E0.00652
G1 X155.614 Y152.374 E0.00422
G1 X154.318 Y152.375 E0.04224
G1 X154.317 Y153.671 E0.04224
G1 X154.317 Y153.871 E0.00652
G1 X154.517 Y153.871 E0.00422
G1 X155.814 Y153.871 E0.04228
G1 X155.814 Y152.67 E0.03915
G0 F978.5 X155.814 Y152.574
G0 F7200 X155.814 Y152.374
G0 X155.914 Y152.374
G0 X148.881 Y150.1
G0 X148.611 Y149.83
G1 F1087.2 X156.389 Y149.83 E0.25352
G1 X156.389 Y154.51 E0.15254
G1 X156.135 Y154.51 E0.00828
G1 X156.135 Y154.601 E0.00069
G1 X148.865 Y154.601 E0.23697
G1 X148.865 Y154.51 E0.00297
G1 X148.611 Y154.51 E0.00777
G1 X148.611 Y149.83 E0.15254
G0 F7200 X148.811 Y149.83
G0 X149.051 Y150.27
G0 X149.211 Y150.43
G10
;MESH:NONMESH
G0 F900 X149.211 Y150.43 Z0.6
G0 F7200 X149.811 Y151.03
;TIME_ELAPSED:30.530670
;LAYER:2
;TYPE:WALL-INNER
;MESH:CuraTemp_302654.stl
G11
G1 F1375.9 X155.189 Y151.03 E0.1753
G1 X155.189 Y151.274 E0.00795
G1 X149.811 Y151.275 E0.10742
G1 X149.811 Y151.03 E0.00799
G0 F7200 X149.411 Y150.63
G1 F1375.9 X155.589 Y150.63 E0.20137
G1 X155.589 Y151.674 E0.03403
G1 X149.61 Y151.675 E0.19489
G1 X149.411 Y151.675 E0.00649
G1 X149.411 Y151.476 E0.0042
G1 X149.411 Y150.63 E0.02758
G0 F7200 X149.355 Y151.546
G0 X149.265 Y154.171
G1 F1375.9 X151.034 Y154.171 E0.05766
G1 X151.034 Y152.273 E0.06187
G1 X151.034 Y152.074 E0.00649
G1 X150.835 Y152.074 E0.0042
G1 X149.21 Y152.075 E0.05297
G1 X149.011 Y152.075 E0.00649
G1 X149.011 Y151.876 E0.0042
G1 X149.011 Y150.23 E0.05365
G1 X155.989 Y150.23 E0.22745
G1 X155.989 Y152.074 E0.06011
G1 X154.018 Y152.075 E0.06424
G1 X154.017 Y153.972 E0.06183
G1 X154.017 Y154.171 E0.00649
G1 X154.216 Y154.171 E0.0042
G1 X155.735 Y154.171 E0.04951
G1 X155.735 Y154.263 E0.003
G1 X154.017 Y154.263 E0.056
G1 X153.574 Y154.263 E0.01444
G1 X151.477 Y154.263 E0.06835
G1 X151.034 Y154.263 E0.01444
G1 X149.265 Y154.263 E0.0133
G1 X149.265 Y154.171 E0.003
G0 F7200 X149.537 Y153.771
;TYPE:WALL-OUTER
G1 F1179.3 X150.634 Y153.771 E0.03576
G1 X150.634 Y152.674 E0.03576
G1 X150.634 Y152.474 E0.00652
G1 X150.434 Y152.474 E0.00422
G1 X149.338 Y152.475 E0.03572
G1 X149.337 Y153.571 E0.03572
G1 X149.337 Y153.771 E0.00652
G1 X149.537 Y153.771 E0.00422
G0 F7200 X149.737 Y153.771
G0 X149.737 Y154.211
G0 X150.862 Y153.999
G0 X151.65 Y152.247
G0 X153.574 Y152.273
;TYPE:WALL-INNER
G1 F1375.9 X153.574 Y152.074 E0.00649
G1 X153.375 Y152.074 E0.0042
G1 X151.478 Y152.075 E0.06183
G1 X151.477 Y153.972 E0.06183
G1 X151.477 Y154.171 E0.00649
G1 X151.676 Y154.171 E0.0042
G1 X153.574 Y154.171 E0.06187
G1 X153.574 Y152.413 E0.0573
G0 F1238.3 X153.574 Y152.273
G0 F7200 X153.174 Y152.674
;TYPE:WALL-OUTER
G1 F1179.3 X153.174 Y152.474 E0.00652
G1 X152.974 Y152.474 E0.00422
G1 X151.878 Y152.475 E0.03572
G1 X151.877 Y153.571 E0.03572
