;FLAVOR:RepRap
;TIME:5883
;Filament used: 6.08224m
;Layer height: 0.2
;MINX:121.9
;MINY:129.4
;MINZ:0.2
;MAXX:188.092
;MAXY:180.6
;MAXZ:30
;Generated with Cura_SteamEngine 4.8.0-beta
T0
M190 S65
M104 S200
M109 S200
M82 ;absolute extrusion mode
;G28  ;Home XY
;M561 ; Clear any bed transform that might be in place
;M116 H0 S5
;M116 T0 S5
;M140 S65 ;Set target temperature for the heated bed.
;M190 ;wait until bed has heated
;M104 T0 S200 ;Set target temperature for the nozzle 1.
;M109 T0 ;Wait until nozzle 1 have reached target temperature.
;G32
;G1 X0 Y0 ; Move Probe to middle of bed
;G30 ; Do a single probe
;G29 ; Probe the bed with the ABL ; **** uncomment this line if you have an always on ABL *****
;G92 E0 ; Reset Extruder
;G1 Z5.0  ; Move Z Axis up little to prevent scratching of Heat Bed
;G1 X-145 Y-145 Z0.3 F9000.0 ; Move to start position
;G1 X-145 Y100.0 Z0.3 F1500.0 E15 ; Draw the first line
;G1 X-142 Y100.0 Z0.3 F6000.0 ; Move to side a little
;G1 X-142 Y-145 Z0.3 F1500.0 E30 ; Draw the second line
;G92 E0 ; Reset Extruder
;G1 Z5.0 F9000 ; Move Z Axis up little to prevent scratching of Heat Bed
; End of custom start GCode
M83 ;relative extrusion mode
G10
;LAYER_COUNT:150
;LAYER:0
M107
G1 F900 Z0.6
G0 F4114.3 X125.099 Y132.431 Z0.6
;TYPE:SKIRT
G1 F900 Z0.2
G11
G1 F1200 X125.784 Y131.816 E0.03451
G1 X126.52 Y131.263 E0.03451
G1 X127.302 Y130.777 E0.03451
G1 X128.123 Y130.36 E0.03452
G1 X128.976 Y130.015 E0.03449
G1 X129.857 Y129.746 E0.03453
G1 X130.757 Y129.555 E0.03449
G1 X131.671 Y129.442 E0.03452
G1 X132.212 Y129.413 E0.02031
G1 X132.83 Y129.4 E0.02317
G1 X133.75 Y129.4 E0.03449
G1 X134.317 Y129.407 E0.02126
G1 X137.086 Y129.406 E0.10379
G1 X137.58 Y129.4 E0.01852
G1 X157.651 Y129.401 E0.75234
G1 X157.995 Y129.406 E0.0129
G1 X160.765 Y129.406 E0.10383
G1 X161.258 Y129.4 E0.01848
G1 X162.099 Y129.401 E0.03152
G1 X162.833 Y129.409 E0.02752
G1 X163.085 Y129.414 E0.00945
G1 X163.719 Y129.436 E0.02378
G1 X164.198 Y129.464 E0.01799
G1 X164.859 Y129.517 E0.02486
G1 X165.325 Y129.565 E0.01756
G1 X165.99 Y129.648 E0.02512
G1 X166.438 Y129.713 E0.01697
G1 X167.085 Y129.822 E0.02459
G1 X167.536 Y129.908 E0.01721
G1 X168.164 Y130.042 E0.02407
G1 X168.624 Y130.151 E0.01772
G1 X169.242 Y130.312 E0.02394
G1 X170.144 Y130.578 E0.03525
G1 X170.676 Y130.756 E0.02103
G1 X171.807 Y131.168 E0.04512
G1 X172.417 Y131.408 E0.02457
G1 X172.859 Y131.598 E0.01803
G1 X173.436 Y131.862 E0.02378
G1 X173.851 Y132.063 E0.01728
G1 X174.428 Y132.358 E0.02429
G1 X174.834 Y132.577 E0.01729
G1 X175.405 Y132.901 E0.02461
G1 X175.793 Y133.132 E0.01693
G1 X176.356 Y133.484 E0.02489
G1 X177.145 Y134.015 E0.03565
G1 X177.578 Y134.33 E0.02007
G1 X178.548 Y135.074 E0.04582
G1 X178.943 Y135.392 E0.01901
G1 X179.31 Y135.712 E0.01825
G1 X180.232 Y136.555 E0.04683
G1 X180.609 Y136.918 E0.01962
G1 X180.936 Y137.259 E0.01771
G1 X181.783 Y138.185 E0.04704
G1 X182 Y138.43 E0.01227
G1 X182.41 Y138.932 E0.0243
G1 X183.162 Y139.912 E0.0463
G1 X183.538 Y140.429 E0.02396
G1 X183.784 Y140.791 E0.01641
G1 X184.148 Y141.352 E0.02507
G1 X184.397 Y141.755 E0.01776
G1 X184.727 Y142.317 E0.02443
G1 X184.948 Y142.712 E0.01697
G1 X185.264 Y143.307 E0.02525
G1 X185.467 Y143.711 E0.01695
G1 X185.733 Y144.268 E0.02314
G1 X185.933 Y144.713 E0.01829
G1 X186.134 Y145.189 E0.01937
G1 X186.329 Y145.683 E0.01991
G1 X186.744 Y146.822 E0.04544
G1 X186.944 Y147.419 E0.0236
G1 X187.077 Y147.864 E0.01741
G1 X187.257 Y148.518 E0.02543
G1 X187.37 Y148.965 E0.01728
G1 X187.514 Y149.594 E0.02419
G1 X187.604 Y150.029 E0.01665
G1 X187.725 Y150.682 E0.02489
G1 X187.799 Y151.137 E0.01728
G1 X187.888 Y151.77 E0.02396
G1 X187.945 Y152.261 E0.01853
G1 X188.007 Y152.925 E0.025
G1 X188.039 Y153.359 E0.01631
G1 X188.073 Y154.012 E0.02451
G1 X188.087 Y154.482 E0.01763
G1 X188.092 Y155.139 E0.02463
G1 X188.086 Y155.589 E0.01687
G1 X188.064 Y156.22 E0.02367
G1 X188.036 Y156.698 E0.01795
G1 X187.983 Y157.359 E0.02486
G1 X187.935 Y157.825 E0.01756
G1 X187.852 Y158.49 E0.02512
G1 X187.787 Y158.938 E0.01697
G1 X187.678 Y159.585 E0.02459
G1 X187.592 Y160.036 E0.01721
G1 X187.458 Y160.664 E0.02407
G1 X187.349 Y161.124 E0.01772
G1 X187.188 Y161.742 E0.02394
G1 X186.922 Y162.644 E0.03525
G1 X186.744 Y163.176 E0.02103
G1 X186.332 Y164.307 E0.04512
G1 X186.092 Y164.917 E0.02457
G1 X185.902 Y165.359 E0.01803
G1 X185.638 Y165.936 E0.02378
G1 X185.437 Y166.352 E0.01732
G1 X185.143 Y166.927 E0.02421
G1 X184.925 Y167.331 E0.01721
G1 X184.6 Y167.904 E0.02469
G1 X184.371 Y168.289 E0.01679
G1 X184.02 Y168.851 E0.02484
G1 X183.481 Y169.65 E0.03613
G1 X183.17 Y170.078 E0.01983
G1 X182.426 Y171.048 E0.04582
G1 X182.108 Y171.443 E0.01901
G1 X181.789 Y171.808 E0.01817
G1 X180.949 Y172.727 E0.04667
G1 X180.582 Y173.109 E0.01986
G1 X180.241 Y173.436 E0.01771
G1 X179.315 Y174.283 E0.04704
G1 X179.07 Y174.5 E0.01227
G1 X178.568 Y174.91 E0.0243
G1 X177.588 Y175.662 E0.0463
G1 X177.071 Y176.038 E0.02396
G1 X176.713 Y176.281 E0.01622
G1 X176.148 Y176.648 E0.02525
G1 X175.733 Y176.904 E0.01828
G1 X175.175 Y177.231 E0.02424
G1 X174.788 Y177.448 E0.01663
G1 X174.193 Y177.764 E0.02525
G1 X173.782 Y177.97 E0.01723
G1 X173.224 Y178.236 E0.02317
G1 X172.786 Y178.433 E0.018
G1 X172.317 Y178.631 E0.01908
G1 X171.832 Y178.822 E0.01954
G1 X170.688 Y179.24 E0.04565
G1 X170.082 Y179.444 E0.02397
G1 X169.629 Y179.579 E0.01772
G1 X168.973 Y179.759 E0.0255
G1 X168.537 Y179.869 E0.01686
G1 X167.909 Y180.013 E0.02415
G1 X167.474 Y180.103 E0.01665
G1 X166.822 Y180.224 E0.02486
G1 X166.359 Y180.299 E0.01758
G1 X165.724 Y180.388 E0.02404
G1 X165.238 Y180.445 E0.01834
G1 X164.574 Y180.507 E0.025
G1 X164.135 Y180.539 E0.0165
G1 X163.418 Y180.576 E0.02691
G1 X162.991 Y180.589 E0.01601
G1 X161.983 Y180.6 E0.03779
G1 X161.097 Y180.599 E0.03321
G1 X160.683 Y180.593 E0.01552
G1 X157.914 Y180.594 E0.10379
G1 X157.42 Y180.6 E0.01852
G1 X137.349 Y180.599 E0.75234
G1 X137.005 Y180.594 E0.0129
G1 X134.235 Y180.594 E0.10383
G1 X133.742 Y180.6 E0.01848
G1 X133.055 Y180.599 E0.02575
G1 X132.357 Y180.589 E0.02617
G1 X131.438 Y180.536 E0.03451
G1 X130.527 Y180.403 E0.03451
G1 X129.631 Y180.192 E0.0345
G1 X128.757 Y179.904 E0.03449
G1 X127.91 Y179.541 E0.03454
G1 X127.099 Y179.106 E0.0345
G1 X126.329 Y178.602 E0.0345
G1 X125.605 Y178.033 E0.03452
G1 X124.933 Y177.403 E0.03453
G1 X124.318 Y176.718 E0.03451
G1 X123.765 Y175.982 E0.03451
G1 X123.278 Y175.201 E0.0345
G1 X122.861 Y174.38 E0.03452
G1 X122.516 Y173.526 E0.03452
G1 X122.247 Y172.646 E0.03449
G1 X122.055 Y171.745 E0.03453
G1 X121.942 Y170.832 E0.03448
G1 X121.913 Y170.277 E0.02083
G1 X121.9 Y169.658 E0.02321
G1 X121.901 Y156.693 E0.48598
G1 X121.906 Y156.348 E0.01293
G1 X121.906 Y153.58 E0.10376
G1 X121.9 Y153.087 E0.01848
G1 X121.901 Y140.539 E0.47035
G1 X121.911 Y139.854 E0.02568
G1 X121.965 Y138.935 E0.03451
G1 X122.097 Y138.024 E0.0345
G1 X122.309 Y137.128 E0.03451
G1 X122.597 Y136.254 E0.03449
G1 X122.961 Y135.408 E0.03452
G1 X123.396 Y134.597 E0.0345
G1 X123.9 Y133.826 E0.03453
G1 X124.469 Y133.102 E0.03452
G1 X124.552 Y133.014 E0.00453
G0 F1080 X125.099 Y132.431
G0 F4114.3 X125.49 Y132.609
G1 F1200 X126.172 Y132.017 E0.03385
G1 X126.904 Y131.488 E0.03385
G1 X127.679 Y131.025 E0.03384
G1 X128.493 Y130.633 E0.03387
G1 X129.338 Y130.315 E0.03384
G1 X130.208 Y130.072 E0.03386
G1 X131.096 Y129.908 E0.03385
G1 X132.223 Y129.813 E0.04239
G1 X132.83 Y129.8 E0.02276
G1 X133.75 Y129.8 E0.03449
G1 X134.311 Y129.807 E0.02103
G1 X137.093 Y129.806 E0.10428
G1 X137.58 Y129.8 E0.01826
G1 X157.645 Y129.801 E0.75212
G1 X157.989 Y129.806 E0.0129
G1 X160.771 Y129.806 E0.10428
G1 X161.258 Y129.8 E0.01826
G1 X162.094 Y129.801 E0.03134
G1 X162.828 Y129.809 E0.02752
G1 X163.071 Y129.814 E0.00911
G1 X163.705 Y129.836 E0.02378
G1 X164.166 Y129.863 E0.01731
G1 X164.827 Y129.916 E0.02486
G1 X165.275 Y129.962 E0.01688
G1 X165.94 Y130.045 E0.02512
G1 X166.372 Y130.108 E0.01636
G1 X167.019 Y130.217 E0.02459
G1 X167.453 Y130.3 E0.01656
G1 X168.081 Y130.434 E0.02407
G1 X168.523 Y130.538 E0.01702
G1 X169.141 Y130.699 E0.02394
G1 X170.028 Y130.961 E0.03467
G1 X170.539 Y131.132 E0.0202
G1 X171.67 Y131.544 E0.04512
G1 X172.267 Y131.779 E0.02405
G1 X172.693 Y131.962 E0.01738
G1 X173.27 Y132.226 E0.02378
G1 X173.669 Y132.419 E0.01661
G1 X174.246 Y132.714 E0.02429
G1 X174.637 Y132.925 E0.01665
G1 X175.208 Y133.249 E0.02461
G1 X175.581 Y133.471 E0.01627
G1 X176.144 Y133.823 E0.02489
G1 X176.918 Y134.345 E0.03499
G1 X177.335 Y134.648 E0.01932
G1 X178.305 Y135.392 E0.04582
G1 X179.04 Y136.007 E0.03592
G1 X179.962 Y136.85 E0.04683
G1 X180.326 Y137.201 E0.01895
G1 X180.64 Y137.529 E0.01702
G1 X181.487 Y138.455 E0.04704
G1 X181.698 Y138.692 E0.01189
G1 X182.093 Y139.176 E0.02342
G1 X182.845 Y140.156 E0.0463
G1 X183.212 Y140.661 E0.0234
G1 X183.449 Y141.009 E0.01578
G1 X183.813 Y141.57 E0.02507
G1 X184.052 Y141.957 E0.01705
G1 X184.382 Y142.519 E0.02443
G1 X184.594 Y142.9 E0.01634
G1 X184.91 Y143.495 E0.02525
G1 X185.106 Y143.883 E0.01629
G1 X185.372 Y144.44 E0.02314
G1 X185.565 Y144.868 E0.0176
G1 X185.766 Y145.344 E0.01937
G1 X185.953 Y145.82 E0.01917
G1 X186.368 Y146.959 E0.04544
G1 X186.563 Y147.542 E0.02304
G1 X186.691 Y147.97 E0.01675
G1 X186.871 Y148.624 E0.02543
G1 X186.98 Y149.055 E0.01666
G1 X187.124 Y149.684 E0.02419
G1 X187.21 Y150.102 E0.016
G1 X187.331 Y150.755 E0.02489
G1 X187.403 Y151.193 E0.01664
G1 X187.492 Y151.826 E0.02396
G1 X187.547 Y152.298 E0.01781
G1 X187.609 Y152.962 E0.025
G1 X187.639 Y153.38 E0.01571
G1 X187.673 Y154.033 E0.02451
G1 X187.687 Y154.485 E0.01695
G1 X187.692 Y155.142 E0.02463
G1 X187.686 Y155.575 E0.01623
G1 X187.664 Y156.206 E0.02367
G1 X187.637 Y156.666 E0.01727
G1 X187.584 Y157.327 E0.02486
G1 X187.538 Y157.775 E0.01688
G1 X187.455 Y158.44 E0.02512
G1 X187.392 Y158.872 E0.01636
G1 X187.283 Y159.519 E0.02459
G1 X187.2 Y159.953 E0.01656
G1 X187.066 Y160.581 E0.02407
G1 X186.962 Y161.023 E0.01702
G1 X186.801 Y161.641 E0.02394
G1 X186.539 Y162.528 E0.03467
G1 X186.368 Y163.039 E0.0202
G1 X185.956 Y164.17 E0.04512
G1 X185.721 Y164.767 E0.02405
G1 X185.538 Y165.193 E0.01738
G1 X185.274 Y165.77 E0.02378
G1 X185.081 Y166.17 E0.01665
G1 X184.787 Y166.745 E0.02421
G1 X184.577 Y167.133 E0.01654
G1 X184.252 Y167.706 E0.02469
G1 X184.031 Y168.077 E0.01619
G1 X183.68 Y168.639 E0.02484
G1 X183.152 Y169.423 E0.03543
G1 X182.852 Y169.835 E0.0191
G1 X182.108 Y170.805 E0.04582
G1 X181.494 Y171.539 E0.03587
G1 X180.654 Y172.458 E0.04667
G1 X180.299 Y172.826 E0.01917
G1 X179.971 Y173.14 E0.01702
G1 X179.045 Y173.987 E0.04704
G1 X178.808 Y174.198 E0.01189
G1 X178.324 Y174.593 E0.02342
G1 X177.344 Y175.345 E0.0463
G1 X176.839 Y175.712 E0.0234
G1 X176.495 Y175.946 E0.0156
G1 X175.93 Y176.313 E0.02525
G1 X175.531 Y176.559 E0.01757
G1 X174.973 Y176.886 E0.02424
G1 X174.6 Y177.094 E0.01601
G1 X174.005 Y177.41 E0.02525
G1 X173.61 Y177.609 E0.01658
G1 X173.052 Y177.875 E0.02317
G1 X172.63 Y178.065 E0.01735
G1 X172.161 Y178.263 E0.01908
G1 X171.695 Y178.447 E0.01878
G1 X170.551 Y178.865 E0.04565
G1 X169.959 Y179.063 E0.0234
G1 X169.523 Y179.193 E0.01705
G1 X168.867 Y179.373 E0.0255
G1 X168.448 Y179.479 E0.0162
G1 X167.82 Y179.623 E0.02415
G1 X167.401 Y179.71 E0.01604
G1 X166.749 Y179.831 E0.02486
G1 X166.304 Y179.903 E0.0169
G1 X165.669 Y179.992 E0.02404
G1 X165.201 Y180.047 E0.01766
G1 X164.537 Y180.109 E0.025
G1 X164.115 Y180.139 E0.01586
G1 X163.398 Y180.176 E0.02691
G1 X162.987 Y180.189 E0.01541
G1 X161.983 Y180.2 E0.03764
G1 X161.103 Y180.199 E0.03299
G1 X160.689 Y180.193 E0.01552
G1 X157.907 Y180.194 E0.10428
G1 X157.42 Y180.2 E0.01826
G1 X137.355 Y180.199 E0.75212
G1 X137.011 Y180.194 E0.0129
G1 X134.229 Y180.194 E0.10428
G1 X133.742 Y180.2 E0.01826
G1 X133.061 Y180.199 E0.02553
G1 X132.363 Y180.189 E0.02617
G1 X131.461 Y180.136 E0.03387
G1 X130.568 Y180.004 E0.03384
G1 X129.69 Y179.793 E0.03385
G1 X128.834 Y179.505 E0.03385
G1 X128.007 Y179.143 E0.03384
G1 X127.215 Y178.708 E0.03387
G1 X126.464 Y178.206 E0.03386
G1 X125.761 Y177.639 E0.03385
G1 X125.111 Y177.012 E0.03385
G1 X124.519 Y176.33 E0.03385
G1 X123.989 Y175.599 E0.03385
G1 X123.527 Y174.823 E0.03385
G1 X123.134 Y174.01 E0.03385
G1 X122.816 Y173.165 E0.03384
G1 X122.573 Y172.295 E0.03386
G1 X122.408 Y171.407 E0.03386
G1 X122.313 Y170.266 E0.04292
G1 X122.3 Y169.658 E0.0228
G1 X122.301 Y156.699 E0.48576
G1 X122.306 Y156.354 E0.01293
G1 X122.306 Y153.574 E0.10421
G1 X122.3 Y153.087 E0.01826
G1 X122.301 Y140.545 E0.47013
G1 X122.311 Y139.86 E0.02568
G1 X122.364 Y138.959 E0.03383
G1 X122.497 Y138.065 E0.03388
G1 X122.708 Y137.187 E0.03385
G1 X122.996 Y136.331 E0.03385
G1 X123.359 Y135.504 E0.03385
G1 X123.793 Y134.712 E0.03385
G1 X124.296 Y133.962 E0.03385
G1 X124.863 Y133.259 E0.03385
G1 X124.935 Y133.184 E0.0039
G0 F1080 X125.49 Y132.609
G10
G1 F900 Z0.6
;MESH:Teaching_Tech_speed_test.stl
G0 F4114.3 X173.278 Y146.705 Z0.6
;TYPE:WALL-INNER
G1 F900 Z0.2
G11
G1 F1200 X173.622 Y147.173 E0.02177
G1 X173.981 Y147.711 E0.02424
G1 X174.266 Y148.183 E0.02067
G1 X174.573 Y148.742 E0.02391
G1 X174.835 Y149.272 E0.02216
G1 X175.056 Y149.775 E0.02059
G1 X175.269 Y150.322 E0.022
G1 X175.477 Y150.932 E0.02416
G1 X175.63 Y151.459 E0.02057
G1 X175.781 Y152.077 E0.02385
G1 X175.892 Y152.627 E0.02103
G1 X175.979 Y153.193 E0.02147
G1 X176.049 Y153.835 E0.02421
G1 X176.086 Y154.386 E0.0207
G1 X176.1 Y154.969 E0.02186
G1 X176.086 Y155.606 E0.02388
G1 X176.05 Y156.156 E0.02066
G1 X175.98 Y156.798 E0.02421
G1 X175.898 Y157.34 E0.02055
G1 X175.783 Y157.915 E0.02198
G1 X175.63 Y158.541 E0.02416
G1 X175.48 Y159.059 E0.02021
G1 X175.279 Y159.652 E0.02347
G1 X175.056 Y160.223 E0.02298
G1 X174.839 Y160.719 E0.02029
G1 X174.573 Y161.258 E0.02253
G1 X174.266 Y161.817 E0.02391
G1 X173.981 Y162.289 E0.02067
G1 X173.63 Y162.816 E0.02373
G1 X173.299 Y163.267 E0.02097
G1 X172.93 Y163.728 E0.02213
G1 X172.523 Y164.192 E0.02314
G1 X172.132 Y164.601 E0.02121
G1 X171.678 Y165.036 E0.02357
G1 X171.267 Y165.399 E0.02055
G1 X170.784 Y165.787 E0.02322
G1 X170.327 Y166.122 E0.02124
G1 X169.789 Y166.481 E0.02424
G1 X169.317 Y166.766 E0.02067
G1 X168.764 Y167.07 E0.02365
G1 X168.22 Y167.339 E0.02275
G1 X167.725 Y167.556 E0.02026
G1 X167.164 Y167.775 E0.02257
G1 X166.57 Y167.977 E0.02352
G1 X166.041 Y168.13 E0.02064
G1 X165.423 Y168.281 E0.02385
G1 X164.864 Y168.392 E0.02136
G1 X164.298 Y168.48 E0.02147
G1 X163.665 Y168.549 E0.02387
G1 X163.105 Y168.586 E0.02104
G1 X162.469 Y168.6 E0.02385
G1 X161.308 Y168.6 E0.04352
G1 X160.153 Y166.6 E0.08657
G1 X158.536 Y166.6 E0.06061
G1 X157.382 Y168.6 E0.08655
G1 X137.618 Y168.6 E0.74084
G1 X136.464 Y166.6 E0.08655
G1 X134.847 Y166.6 E0.06061
G1 X134.272 Y167.596 E0.04311
G1 X133.9 Y168.24 E0.02788
G1 X133.9 Y167.497 E0.01439
G1 X133.9 Y167.496 E0.00004
G1 X133.9 Y156.963 E0.39482
G1 X136.1 Y155.693 E0.09522
G1 X136.1 Y154.307 E0.05195
G1 X133.9 Y153.037 E0.09522
G1 X133.9 Y142.504 E0.39482
G1 X133.9 Y142.503 E0.00004
G1 X133.9 Y141.76 E0.02785
G1 X134.272 Y142.404 E0.01441
G1 X134.847 Y143.4 E0.04311
G1 X136.464 Y143.4 E0.06061
G1 X137.618 Y141.4 E0.08655
G1 X157.382 Y141.4 E0.74084
G1 X158.536 Y143.4 E0.08655
G1 X160.153 Y143.4 E0.06061
G1 X161.308 Y141.4 E0.08657
G1 X162.469 Y141.4 E0.04352
G1 X163.105 Y141.414 E0.02385
G1 X163.665 Y141.451 E0.02104
G1 X164.298 Y141.52 E0.02387
G1 X164.864 Y141.608 E0.02147
G1 X165.423 Y141.719 E0.02136
G1 X166.041 Y141.87 E0.02385
G1 X166.568 Y142.023 E0.02057
G1 X167.164 Y142.225 E0.02359
G1 X167.725 Y142.444 E0.02257
G1 X168.219 Y142.661 E0.02022
G1 X168.758 Y142.927 E0.02253
G1 X169.317 Y143.234 E0.02391
G1 X169.789 Y143.519 E0.02067
G1 X170.305 Y143.863 E0.02325
G1 X170.789 Y144.218 E0.0225
G1 X171.26 Y144.595 E0.02261
G1 X171.678 Y144.964 E0.0209
G1 X172.113 Y145.38 E0.02256
G1 X172.536 Y145.822 E0.02293
G1 X172.77 Y146.087 E0.01325
G0 F1080 X172.899 Y146.233
G0 X173.278 Y146.705
G0 F4114.3 X173.6 Y146.468
G1 F1200 X173.955 Y146.951 E0.02247
G1 X174.314 Y147.489 E0.02424
G1 X174.617 Y147.99 E0.02195
G1 X174.924 Y148.549 E0.02391
G1 X175.194 Y149.095 E0.02283
G1 X175.429 Y149.63 E0.0219
G1 X175.648 Y150.193 E0.02264
G1 X175.856 Y150.803 E0.02416
G1 X176.019 Y151.364 E0.0219
G1 X176.17 Y151.982 E0.02385
